!!!!SEGMENT: s-uu--vok-mus-i-hs-22-11_forster-kaspar--o-plausus-orantes-jungamus.krn
!!!cenid: 16xx:1694
!!!COM: Förster, Kaspar
!!!COM-rismID: pe30006147
!!!CDT: ~1616-1673/02/02
!!!CNT: German
!!!OTL: O plausus orantes jungamus
!!!PDT: 1670
!!!AGN:
!!!SMS-siglum: S-Uu
!!!SMS-shelfmark: Vok. mus. i hs. 22:11
!!!SMS-shelfwork: W
!!!SMS-variant: [ex 1]: S-Uu Vok. mus. i hs. 22:11, Organo. [=bc] [ex 1]: S-Uu Vok. mus. i hs. 22:11
!!!SMS-altvar: [ex 2]: S-Uu Vok. mus. i hs. 22:11, Violono. [=bc] [ex 1]: S-Uu Vok. mus. i hs. 22:11
!!!NIFC-rismSourceID: 190008730
!!!NIFC-rismChildID: 190008730
!!!NIFC-islandoraID: none
!!!URL-pdf-islandora:
!!!URL-scan: https://www2.musik.uu.se/duben/presentationSource1.php?Select_Dnr=846 @EN{Scan on Academica} @PL{Skany w zewnętrznej bibliotece cyfrowej}
!!!ONB-nifc: UWAGA: poszczególne partie dostępne po kliknięciu w „browse part”. Informacje nt stron tytułowych w opisie na stronie lub na RISM.
!!!AIN: 1 alto 1 bass 1 organ 1 tenor 2 violn
!!!key: C
**kern	**fba	**kern	**dynam	**kern	**dynam	**kern	**text	**kern	**text	**kern	**text	**dynam
*part6	*part6	*part5	*part5	*part4	*part4	*part3	*part3	*part2	*part2	*part1	*part1	*part1
*staff6	*	*staff5	*	*staff4	*	*staff3	*staff3	*staff2	*staff2	*staff1	*staff1	*
*I"Organo.	*	*I"Violino 2:do	*	*I"Violino 1.	*	*I"Basso.	*	*I"Tenor.	*	*I"Alto.	*	*
*I'org	*	*I'vl II	*	*I'vl I	*	*I'B	*	*I'T	*	*I'A	*	*
*ICklav	*	*ICstr	*	*ICstr	*	*ICvox	*	*ICvox	*	*ICvox	*	*
*Iorgan	*	*Ivioln	*	*Ivioln	*	*Ibass	*	*Itenor	*	*Ialto	*	*
*clefF4	*	*clefG2	*	*clefG2	*	*clefF4	*	*clefC4	*	*clefC3	*	*
*C:	*	*C:	*	*C:	*	*C:	*	*C:	*	*C:	*	*
*k[]	*	*k[]	*	*k[]	*	*k[]	*	*k[]	*	*k[]	*	*
*M3/1	*	*M3/1	*	*M3/1	*	*M3/1	*	*M3/1	*	*M3/1	*	*
=1	=1	=1	=1	=1	=1	=1	=1	=1	=1	=1	=1	=1
!!LO:TX:t=P:problem:all\left or right	!	!	!	!	!	!	!	!	!	!	!
!LO:TX:b:i:t=Sinfonia	!	!	!	!	!	!	!	!	!	!	!	!
1.C	.	2.ee\	.	2.gg\	.	1%3r	.	1%3r	.	1%3r	.	.
.	.	4ee\	.	4gg\	.	.	.	.	.	.	.	.
.	.	2ee\	.	2gg\	.	.	.	.	.	.	.	.
2C/	.	2ee\	.	2gg\	.	.	.	.	.	.	.	.
2F\	7 3	2ff\	.	2aa\	.	.	.	.	.	.	.	.
!	!	!LO:TX:b:t=P:problem:# below	!	!	!	!	!	!	!	!	!	!
!LO:TX:t=P:problem:kreska pseudotaktowa	!	!LO:N:acc=#	!	!LO:TX:t=P:problem:kreska pseudotaktowa	!	!	!	!	!	!	!	!
2G\	#	2b#X/	.	2ff\	.	.	.	.	.	.	.	.
=2	=2	=2	=2	=2	=2	=2	=2	=2	=2	=2	=2	=2
1.C	.	2.cc\	.	2.ee\	.	1%3r	.	1%3r	.	1%3r	.	.
.	.	4cc\	.	4ee\	.	.	.	.	.	.	.	.
!	!	!LO:TX:t=P:problem:kreska pseudotaktowa	!	!	!	!	!	!	!	!	!	!
.	.	2cc\	.	2ee,\	.	.	.	.	.	.	.	.
2G\	.	2b/	.	2dd\	.	.	.	.	.	.	.	.
2C/	.	2cc\	.	2ee\	.	.	.	.	.	.	.	.
!LO:TX:t=P:problem:kreska pseudotaktowa	!	!	!	!	!	!	!	!	!	!	!	!
2D/	7 #	2f#X,/	.	2cc,\	.	.	.	.	.	.	.	.
=3	=3	=3	=3	=3	=3	=3	=3	=3	=3	=3	=3	=3
1.GG	.	2.g/	.	2.b/	.	1%3r	.	1%3r	.	1%3r	.	.
.	.	4g/	.	4b/	.	.	.	.	.	.	.	.
.	.	2g,/	.	2b,/	.	.	.	.	.	.	.	.
2GG/	6	2ee\	.	2gg\	.	.	.	.	.	.	.	.
2AA/	6 -5	2ee\	.	2.ff\	.	.	.	.	.	.	.	.
!LO:TX:t=P:problem:kreska pseudotaktowa	!	!	!	!	!	!	!	!	!	!	!	!
2BB/	-5	2dd,\	.	.	.	.	.	.	.	.	.	.
.	.	.	.	4ff,\	.	.	.	.	.	.	.	.
=4	=4	=4	=4	=4	=4	=4	=4	=4	=4	=4	=4	=4
1.C	.	2.dd\	.	2.ee\	.	1%3r	.	1%3r	.	1%3r	.	.
.	.	4cc\	.	4ee\	.	.	.	.	.	.	.	.
.	.	2cc,\	.	2ee,\	.	.	.	.	.	.	.	.
2C/	6	2a/	.	2cc\	.	.	.	.	.	.	.	.
2D/	6 5	2a/	.	2.b-X/	.	.	.	.	.	.	.	.
2E\	-5r	2g,/	.	.	.	.	.	.	.	.	.	.
.	.	.	.	4b-,/	.	.	.	.	.	.	.	.
=5	=5	=5	=5	=5	=5	=5	=5	=5	=5	=5	=5	=5
1F	.	1f	.	2.a/	.	1%3r	.	1%3r	.	1%3r	.	.
.	.	.	.	4b/	.	.	.	.	.	.	.	.
!LO:TX:t=P:problem:kreska pseudotaktowa	!	!	!	!	!	!	!	!	!	!	!	!
2E\	.	2g,/	.	2cc,\	.	.	.	.	.	.	.	.
2BB/	.	2g/	.	2dd\	.	.	.	.	.	.	.	.
2C/	.	2.g/	.	2.a/	.	.	.	.	.	.	.	.
2D/	.	.	.	.	.	.	.	.	.	.	.	.
.	.	4f#X/	.	4a,/	.	.	.	.	.	.	.	.
=6	=6	=6	=6	=6	=6	=6	=6	=6	=6	=6	=6	=6
1.G	.	2.g/	.	2.b/	.	1%3r	.	1%3r	.	1%3r	.	.
.	.	4g/	.	4b/	.	.	.	.	.	.	.	.
!	!	!LO:SIC:v:t=custos ee	!	!LO:SIC:v:t=custos gg	!	!	!	!	!	!	!	!
.	.	2g/	.	2b/	.	.	.	.	.	.	.	.
!	!	!LO:LB:g=original	!	!LO:LB:g=original	!	!	!	!	!	!	!	!
2GG/	6	2ee\	.	2gg\	.	.	.	.	.	.	.	.
2AA/	6 5	2ee\	.	2.ff\	.	.	.	.	.	.	.	.
2BB,/	-5	2dd,\	.	.	.	.	.	.	.	.	.	.
.	.	.	.	4ff,\	.	.	.	.	.	.	.	.
=7	=7	=7	=7	=7	=7	=7	=7	=7	=7	=7	=7	=7
2.C/	.	2.cc\	.	2.ee\	.	1%3r	.	1%3r	.	1%3r	.	.
4D/	.	4cc\	.	4ff\	.	.	.	.	.	.	.	.
2E,\	6	2cc,\	.	2gg,\	.	.	.	.	.	.	.	.
2F\	.	2cc\	.	2aa\	.	.	.	.	.	.	.	.
2G\	.	2.cc\	.	2.dd\	.	.	.	.	.	.	.	.
!LO:SIC:v:t=custos C	!	!	!	!	!	!	!	!	!	!	!	!
2GG/	.	.	.	.	.	.	.	.	.	.	.	.
.	.	4b/	.	4dd,\	.	.	.	.	.	.	.	.
!LO:LB:g=original	!	!	!	!	!	!	!	!	!	!	!	!
=8	=8	=8	=8	=8	=8	=8	=8	=8	=8	=8	=8	=8
!	!	!	!	!	!LO:DY:t=pian	!	!	!	!	!	!	!
2.C/	.	1.cc,	.	2.ee\	p	1%3r	.	1%3r	.	1%3r	.	.
4D/	.	.	.	4ff\	.	.	.	.	.	.	.	.
2E,\	6	.	.	2gg,\	.	.	.	.	.	.	.	.
!	!	!	!LO:DY:a	!	!	!	!	!	!	!	!	!
!	!	!	!LO:DY:t=Pian	!	!	!	!	!	!	!	!	!
2F\	.	2cc\	p	2aa\	.	.	.	.	.	.	.	.
2G\	.	2.cc\	.	2.dd\	.	.	.	.	.	.	.	.
!LO:TX:t=P:problem:kreska pseudotaktowa	!	!	!	!	!	!	!	!	!	!	!	!
2GG/	.	.	.	.	.	.	.	.	.	.	.	.
.	.	4b/	.	4dd\	.	.	.	.	.	.	.	.
=9	=9	=9	=9	=9	=9	=9	=9	=9	=9	=9	=9	=9
1.C,	.	1cc	.	1ee	.	2r	.	2r	.	2r	.	.
.	.	.	.	.	.	2r	.	2r	.	2r	.	.
!	!	!	!	!	!	!LO:TX:t=P:problem:kreska pseudotaktowa	!	!	!	!LO:TX:t=P:problem:kreska pseudotaktowa	!	!
.	.	2r	.	2r	.	2C/	O	2c\	O	2e\	O	.
2C/	.	1.r	.	1.r	.	2C/	plau-	2e\	plau-	2g\	plau-	.
1F,	.	.	.	.	.	2.F\	-sus	2.d\	-s(us)	2.f\	-s(us)	.
.	.	.	.	.	.	4F\	o-	4c\	o-	4e\	o-	.
=10	=10	=10	=10	=10	=10	=10	=10	=10	=10	=10	=10	=10
1G	.	1.r	.	1.r	.	2G\	-ran-	2B\	-ran-	2d\	-ran-	.
.	.	.	.	.	.	2G\	-tes	2B\	-tes	2d\	-tes	.
!LO:TX:t=P:problem:kreska pseudotaktowa	!	!	!	!	!	!	!	!	!	!	!	!
2E\	6	.	.	.	.	2E\	jun-	2c\	jun-	2e\	jun-	.
2F\	.	2r	.	2r	.	2F\	-ga-	2c\	-ga-	2e\	-ga-	.
1G,	4:3	2r	.	2r	.	2.G\	-m(us)	2c\	-m(us)	2.d\	-m(us)	.
.	.	2dd,\	.	2b,/	.	.	.	2B\	et	.	.	.
.	.	.	.	.	.	4GG/	et	.	.	4e\	et	.
=11	=11	=11	=11	=11	=11	=11	=11	=11	=11	=11	=11	=11
1.C,	.	2cc\	.	2ee\	.	2C/	nos	2c\	nos	2e\	nos	.
.	.	2.b/	.	2.dd\	.	2r	.	2r	.	2r	.	.
.	.	.	.	.	.	2r	.	2r	.	2r	.	.
.	.	4a,/	.	4cc,\	.	.	.	.	.	.	.	.
1G	.	2b/	.	2dd\	.	1.r	.	1.r	.	1.r	.	.
.	.	2b/	.	2dd\	.	.	.	.	.	.	.	.
!LO:TX:t=P:problem:kreska pseudotaktowa	!	!	!	!	!	!	!	!	!	!	!	!
2E\	6	2cc,\	.	2ee,\	.	.	.	.	.	.	.	.
=12	=12	=12	=12	=12	=12	=12	=12	=12	=12	=12	=12	=12
2F\	.	2cc\	.	2dd\	.	2r	.	1.r	.	1%3r	.	.
2D/	.	2.cc\	.	2.dd\	.	2r	.	.	.	.	.	.
2G,\	.	.	.	.	.	2G\	in	.	.	.	.	.
.	.	4b,/	.	4dd\	.	.	.	.	.	.	.	.
1.C,	7:6	1cc	.	1ee	.	2C/	au-	2r	.	.	.	.
.	.	.	.	.	.	2.C/	-res	2r	.	.	.	.
.	.	2r	.	2r	.	.	.	2e\	in	.	.	.
.	.	.	.	.	.	4C/	so-	.	.	.	.	.
=13	=13	=13	=13	=13	=13	=13	=13	=13	=13	=13	=13	=13
!LO:TX:t=P:problem:kreska pseudotaktowa	!	!LO:TX:a:t=5.	!	!	!	!	!	!	!	!	!	!
1.D	5:6 #	1%3r	.	1%3r	.	2D/	-na(n)-	2A/	au-	1.r	.	.
.	.	.	.	.	.	2.D/	-tes	2.A/	-res	.	.	.
!	!	!	!	!	!	!	!	!LO:TX:t=P:problem:kreska pseudotaktowa	!	!	!	!
.	.	.	.	.	.	4D/	in	4d\	so-	.	.	.
!	!	!	!	!	!	!LO:LB:g=original	!	!	!	!	!	!
1.E	5:6	.	.	.	.	2E\	au-	2B\	-na(n)-	2r	.	.
.	.	.	.	.	.	2.E\	-res	2B\	-tes	2r	.	.
.	.	.	.	.	.	.	.	2G/	in	2g\	in	.
.	.	.	.	.	.	4E\	so-	.	.	.	.	.
=14	=14	=14	=14	=14	=14	=14	=14	=14	=14	=14	=14	=14
2F\	.	1%3r	.	1%3r	.	2F\	-na(n)-	2A/	au-	2c/	au-	.
2.F\	.	.	.	.	.	2.F\	-tes	2.A/	-res	2.c/	-res	.
!	!	!	!	!	!	!	!	!LO:SIC:v:t=custos B	!	!	!	!
4D,/	.	.	.	.	.	4D/	so-	4A/	so-	4f\	so-	.
!	!	!	!	!	!	!	!	!LO:LB:g=original	!	!	!	!
1G	.	.	.	.	.	2G\	-na(n)-	2B\	-nan-	2d\	-na(n)-	.
.	.	.	.	.	.	2G\	-tes	2.B\	-tes	2.d\	-tes	.
!LO:TX:t=P:problem:kreska pseudotaktowa	!	!	!	!	!	!	!	!	!	!	!	!
2BB/	6	.	.	.	.	2BB/	ver-	.	.	.	.	.
.	.	.	.	.	.	.	.	4G/	ver-	4d\	ver-	.
!	!	!	!	!	!	!	!	!	!	!LO:LB:g=original	!	!
=15	=15	=15	=15	=15	=15	=15	=15	=15	=15	=15	=15	=15
1C	.	1.r	.	1%3r	.	2C/	-ta-	2G/	-ta-	2e\	-ta-	.
.	.	.	.	.	.	2C/	-tŭr	2A/	-tur	2f#X\	-tur	.
2BB,/	6	.	.	.	.	2BB/	ver-	2B\	ver-	2g\	ver-	.
2C/	.	2r	.	.	.	2C/	-ta-	2B\	-ta-	2g\	-ta-	.
!LO:SIC:v:t=custos GG	!	!	!	!	!	!	!	!	!	!	!	!
1D	4:3	2r	.	.	.	2.D/	-tur	2.A/	-tur	2.g\	-tur	.
.	.	2dd,\	.	.	.	.	.	.	.	.	.	.
.	.	.	.	.	.	4D/	jam	4B\	ja(m)	4f#X\	jam	.
!LO:LB:g=original	!	!	!	!	!	!	!	!	!	!	!	!
=16	=16	=16	=16	=16	=16	=16	=16	=16	=16	=16	=16	=16
1.GG	5:6	2b/	.	2r	.	1.GG	vox	1B	vox,	1.g	vox,	.
.	.	2.b/	.	2r	.	.	.	.	.	.	.	.
.	.	.	.	2gg,\	.	.	.	2r	.	.	.	.
!	!	!LO:SIC:v:t=custos ee	!	!	!	!	!	!	!	!	!	!
.	.	4ee\	.	.	.	.	.	.	.	.	.	.
!	!	!LO:LB:g=original	!	!	!	!	!	!	!	!	!	!
2AA/	5	2ee\	.	2cc\	.	1.r	.	1.r	.	1.r	.	.
2.AA/	6	2a/	.	2cc\	.	.	.	.	.	.	.	.
!	!	!	!	!LO:SIC:v:t=custos ee	!	!	!	!	!	!	!	!
.	.	2aa,\	.	[2ff,\	.	.	.	.	.	.	.	.
!LO:TX:t=P:problem:kreska pseudotaktowa	!	!	!	!	!	!	!	!	!	!	!	!
4BB/	.	.	.	.	.	.	.	.	.	.	.	.
!	!	!	!	!LO:LB:g=original	!	!	!	!	!	!	!	!
=17	=17	=17	=17	=17	=17	=17	=17	=17	=17	=17	=17	=17
1.C	4:3	1gg	.	2ff\]	.	1.r	.	1%3r	.	1%3r	.	.
.	.	.	.	2.ee\	.	.	.	.	.	.	.	.
.	.	2gg\	.	.	.	.	.	.	.	.	.	.
.	.	.	.	4ee,\	.	.	.	.	.	.	.	.
!LO:TX:t=P:problem:kreska pseudotaktowa	!	!	!	!	!	!	!	!	!	!	!	!
1.D	-	2ff\	.	2dd\	.	1.r	.	.	.	.	.	.
.	.	2dd\	.	2b/	.	.	.	.	.	.	.	.
.	.	2cc\	.	2a,/	.	.	.	.	.	.	.	.
=18	=18	=18	=18	=18	=18	=18	=18	=18	=18	=18	=18	=18
2E\	.	2cc\	.	1a	.	2r	.	1%3r	.	1.r	.	.
1EE,	.	1b	.	.	.	2r	.	.	.	.	.	.
.	.	.	.	2g#X/	.	2E\	in	.	.	.	.	.
1.AA,	.	1cc	.	1a	.	2.AA/	au-	.	.	2r	.	.
.	.	.	.	.	.	.	.	.	.	2r	.	.
.	.	.	.	.	.	4AA/	-res	.	.	.	.	.
!	!	!	!	!	!	!LO:SIC:v:t=custos BB	!	!	!	!	!	!
.	.	2r	.	2r	.	2AA/	so-	.	.	2a\	in	.
!	!	!	!	!	!	!LO:LB:g=original	!	!	!	!	!	!
=19	=19	=19	=19	=19	=19	=19	=19	=19	=19	=19	=19	=19
!	!	!LO:TX:a:t=5	!	!	!	!	!	!	!	!	!	!
2BB/	.	1%3r	.	1%3r	.	2BB/	-nan-	1.r	.	2d\	au-	.
2.BB/	.	.	.	.	.	2.BB/	-tes	.	.	2d\	-res	.
.	.	.	.	.	.	.	.	.	.	4g\	so-	.
!	!	!	!	!	!	!	!	!	!	!LO:TX:a:t=P:problem:# above	!	!
!LO:TX:t=P:problem:kreska pseudotaktowa	!	!	!	!	!	!	!	!	!	!LO:TX:t=P:problem:kreska pseudotaktowa	!	!
4C#X/	.	.	.	.	.	4C#X/	so-	.	.	4f#X\	.	.
1D	.	.	.	.	.	2D/	-nan-	2r	.	2f#\	-nan-	.
.	.	.	.	.	.	2.D/	-tes	2r	.	2.f#\	-tes	.
2D,/	.	.	.	.	.	.	.	2d\	in	.	.	.
.	.	.	.	.	.	4D/	in	.	.	4f#\	in	.
=20	=20	=20	=20	=20	=20	=20	=20	=20	=20	=20	=20	=20
2E\	.	1%3r	.	1%3r	.	2E\	au-	2G/	au-	2g\	au-	.
2.E\	.	.	.	.	.	2.E\	-re[s]	2G/	-res	2.g\	-res	.
.	.	.	.	.	.	.	.	(4c\	so-	.	.	.
!LO:TX:t=P:problem:kreska pseudotaktowa	!	!	!	!	!	!	!	!	!	!	!	!
4F#X\	.	.	.	.	.	4F#X\	so-	4B\)	.	4a\	so-	.
2.G\	.	.	.	.	.	2.G\	-na(n)-	2B\	-nan-	2d\	-nan-	.
.	.	.	.	.	.	.	.	2B\	-tes	2d\	-tes	.
4Fn\	.	.	.	.	.	4Fn\	-tes	.	.	.	.	.
!	!	!	!	!	!	!	!	!	!	!LO:SIC:v:t=custos e	!	!
2E,\	.	.	.	.	.	2E\	ver-	2c\	ver-	2e\	ver-	.
!	!	!	!	!	!	!	!	!	!	!LO:LB:g=original	!	!
=21	=21	=21	=21	=21	=21	=21	=21	=21	=21	=21	=21	=21
2F\	.	1.r	.	2r	.	2F\	-ta-	2c\	-ta-	2e\	-ta-	.
2G\	4:3	.	.	2r	.	2G\	-tur	2.c\	-tur	2.d\	-tur	.
!LO:TX:t=P:problem:kreska pseudotaktowa	!	!	!	!	!	!	!	!	!	!	!	!
2GG/	.	.	.	2gg,\	.	2GG/	jam	.	.	.	.	.
.	.	.	.	.	.	.	.	4B\	jam	4d\	jam	.
1C	.	2r	.	2ee\	.	1C	vox	1c	vox	1e	vox	.
.	.	2r	.	2ee\	.	.	.	.	.	.	.	.
2C,/	.	2ee,\	.	2cc,\	.	2r	.	2r	.	2r	.	.
!	!	!	!	!	!	!	!	!LO:LB:g=original	!	!	!	!
=22	=22	=22	=22	=22	=22	=22	=22	=22	=22	=22	=22	=22
1F	.	2cc\	.	2a/	.	1%3r	.	1%3r	.	1%3r	.	.
.	.	2cc\	.	2a/	.	.	.	.	.	.	.	.
!LO:SIC:v:t=custos G	!	!	!	!	!	!	!	!	!	!	!	!
2F\	.	2a,/	.	2aa,\	.	.	.	.	.	.	.	.
!LO:LB:g=original	!	!	!	!	!	!	!	!	!	!	!	!
1G	.	2b/	.	2gg\	.	.	.	.	.	.	.	.
.	.	2cc#X\	.	2aa\	.	.	.	.	.	.	.	.
2B-X,\	.	2dd,\	.	2ff,\	.	.	.	.	.	.	.	.
=23	=23	=23	=23	=23	=23	=23	=23	=23	=23	=23	=23	=23
2G\	.	1dd	.	1ee	.	1%3r	.	1.r	.	2r	.	.
2A\	4:3	.	.	.	.	.	.	.	.	2r	.	.
!LO:TX:t=P:problem:kreska pseudotaktowa	!	!	!	!	!	!	!	!	!	!	!	!
2AA/	.	2cc#X\	.	2ee,\	.	.	.	.	.	2a\	in	.
1.D	#	1dd	.	2.ff#X\	.	.	.	2r	.	2f#X\	au-	.
.	.	.	.	.	.	.	.	2r	.	2.f#\	-res	.
.	.	.	.	4gg\	.	.	.	.	.	.	.	.
.	.	2dd\	.	2aa\	.	.	.	2d\	in	.	.	.
.	.	.	.	.	.	.	.	.	.	4f#\	so-	.
=24	=24	=24	=24	=24	=24	=24	=24	=24	=24	=24	=24	=24
!LO:TX:t=P:problem:kreska pseudotaktowa	!	!	!	!	!	!	!	!	!	!	!	!
1.GG	.	1.dd	.	1.gg,	.	2r	.	2B\	au-	4g\	-nan-	.
.	.	.	.	.	.	.	.	.	.	4f\	.	.
.	.	.	.	.	.	2r	.	2.B\	-res	4g\	.	.
.	.	.	.	.	.	.	.	.	.	4d\	.	.
.	.	.	.	.	.	2G\	in	.	.	4e\	.	.
.	.	.	.	.	.	.	.	4B\	so-	4f\	.	.
1C	.	1cc	.	1gg	.	2C/	au-	2c\	-nan-	2e\	.	.
.	.	.	.	.	.	2C/	-res	2c\	-tes	2e\	-tes	.
!	!	!	!	!	!	!LO:SIC:v:t=custos E	!	!	!	!	!	!
2C,/	.	2cc,\	.	2gg,\	.	2C/	so-	2e\	in	2g\	in	.
!	!	!	!	!	!	!LO:LB:g=original	!	!	!	!	!	!
=25	=25	=25	=25	=25	=25	=25	=25	=25	=25	=25	=25	=25
2E\	6	2cc\	.	2gg\	.	2E\	-nan-	2e\	au-	2g\	au-	.
!LO:TX:t=P:problem:kreska pseudotaktowa	!	!	!	!	!	!	!	!	!	!	!	!
1F	.	1a	.	1aa,	.	2.F\	-tes	2.d\	-res	2.f\	-res	.
.	.	.	.	.	.	4F\	so-	4c\	so-	4e\	so-	.
1G	.	1b	.	1gg	.	2G\	-na(n)-	2B\	-na(n)-	2d\	-nan-	.
.	.	.	.	.	.	2G\	-tes	2B\	-tes	2d\	-tes	.
!	!	!LO:SIC:v:t=custos dd	!	!	!	!	!	!	!	!LO:SIC:v:t=custos e	!	!
2E\	6	2g/	.	2gg,\	.	2E\	ver-	2c\	ver-	2e\	ver-	.
!	!	!LO:LB:g=original	!	!	!	!	!	!	!	!LO:LB:g=original	!	!
=26	=26	=26	=26	=26	=26	=26	=26	=26	=26	=26	=26	=26
2F\	.	2r	.	2aa\	.	2F\	-ta-	2c\	-ta-	2e\	-ta-	.
!LO:TX:t=P:problem:kreska pseudotaktowa	!	!	!	!LO:SIC:v:t=custos gg	!	!	!	!	!	!	!	!
1G	4:3	2.dd\	.	1gg	.	2G\	-tur	2.c\	-tur	2.d\	-tur	.
.	.	.	.	.	.	2GG/	iam	.	.	.	.	.
.	.	4dd,\	.	.	.	.	.	4B\	ja(m)	4e\	jam	.
1C	.	2.ee\	.	1gg	.	1C	vox	1c	vox	1c	vox	.
.	.	4dd\	.	.	.	.	.	.	.	.	.	.
!	!	!	!	!	!LO:DY:a	!	!	!	!	!	!	!
!	!	!	!	!	!LO:DY:t=pian	!	!	!	!	!	!	!
2EE,/	6	2cc\	.	2gg,\	p	2EE/	ver-	2c\	ver-	2e\	ver-	.
=27	=27	=27	=27	=27	=27	=27	=27	=27	=27	=27	=27	=27
!	!	!	!	!	!	!	!	!	!	!	!	!LO:DY:a
!	!	!	!	!	!	!	!	!	!	!	!	!LO:DY:t=pian
2FF/	.	2r	.	2aa\	.	2FF/	-ta-	2c\	-ta-	2e\	-ta-	p
!LO:TX:t=P:problem:kreska pseudotaktowa	!	!	!LO:DY:a	!	!	!	!	!	!	!	!	!
1GG	.	1dd	f	1gg,	.	2.GG/	-tur	2.c\	-tur	2.d\	-tur	.
.	.	.	.	.	.	4GG/	ja(m)	4B\	ja(m)	4e\	ja(m)	.
!LO:TX:b:i:t=Sinfoni	!	!	!	!	!	!	!	!	!	!	!	!
1.C	.	4ee\	.	2gg\	.	2C/	vox	2c\	vox	2c/	vox	.
.	.	4ff\	.	.	.	.	.	.	.	.	.	.
.	.	4gg\	.	2r	.	2r	.	2r	.	2r	.	.
.	.	4cc\	.	.	.	.	.	.	.	.	.	.
.	.	4b-X/	.	2r,	.	2r	.	2r	.	2r	.	.
.	.	4cc,\	.	.	.	.	.	.	.	.	.	.
=28	=28	=28	=28	=28	=28	=28	=28	=28	=28	=28	=28	=28
1.FF	.	2a/	.	4aa\	.	1%3r	.	1%3r	.	1%3r	.	.
.	.	.	.	4bb-X\	.	.	.	.	.	.	.	.
.	.	2.a/	.	4ccc\	.	.	.	.	.	.	.	.
.	.	.	.	4ff\	.	.	.	.	.	.	.	.
.	.	.	.	4gg\	.	.	.	.	.	.	.	.
.	.	4b,/	.	4ff,\	.	.	.	.	.	.	.	.
!LO:TX:t=P:problem:kreska pseudotaktowa	!	!	!	!	!	!	!	!	!	!	!	!
1.C	.	4cc\	.	4ee\	.	.	.	.	.	.	.	.
.	.	4b/	.	4dd\	.	.	.	.	.	.	.	.
.	.	4cc\	.	4ee\	.	.	.	.	.	.	.	.
.	.	4dd\	.	4ff\	.	.	.	.	.	.	.	.
.	.	4ee\	.	4gg\	.	.	.	.	.	.	.	.
.	.	4ff,\	.	4aa,\	.	.	.	.	.	.	.	.
=29	=29	=29	=29	=29	=29	=29	=29	=29	=29	=29	=29	=29
1GG	-	2gg\	.	2bb-X\	.	1%3r	.	1%3r	.	1%3r	.	.
.	.	4g/	.	4b-X/	.	.	.	.	.	.	.	.
.	.	4a/	.	4cc\	.	.	.	.	.	.	.	.
!	!	!LO:SIC:v:s=4b-/	!	!	!	!	!	!	!	!	!	!
2G,\	-	4b/	.	4dd\	.	.	.	.	.	.	.	.
.	.	4cc,\	.	4ee,\	.	.	.	.	.	.	.	.
1.D,	-	4dd\	.	4ff\	.	.	.	.	.	.	.	.
.	.	4cc\	.	4ee\	.	.	.	.	.	.	.	.
.	.	4dd\	.	4ff\	.	.	.	.	.	.	.	.
.	.	4ee\	.	4gg\	.	.	.	.	.	.	.	.
.	.	4ff\	.	4aa\	.	.	.	.	.	.	.	.
.	.	4gg,\	.	4bb-\	.	.	.	.	.	.	.	.
=30	=30	=30	=30	=30	=30	=30	=30	=30	=30	=30	=30	=30
!LO:TX:t=P:problem:kreska pseudotaktowa	!	!	!	!	!	!	!	!	!	!	!	!
1.AA,	.	4aa\	.	4ccc\	.	1%3r	.	1%3r	.	1%3r	.	.
.	.	4ff\	.	4aa\	.	.	.	.	.	.	.	.
.	.	4aa\	.	4ccc\	.	.	.	.	.	.	.	.
.	.	4gg\	.	4bb-X\	.	.	.	.	.	.	.	.
.	.	4ff\	.	4aa\	.	.	.	.	.	.	.	.
!	!	!LO:SIC:v:t=custos dd	!	!	!	!	!	!	!	!	!	!
.	.	4ee\	.	4gg,\	.	.	.	.	.	.	.	.
!LO:SIC:v:t=custos BB	!	!	!	!	!	!	!	!	!	!	!	!
!	!	!LO:LB:g=original	!	!	!	!	!	!	!	!	!	!
1.BB-X	5	4dd\	.	4ff\	.	.	.	.	.	.	.	.
.	.	4b-X/	.	4dd\	.	.	.	.	.	.	.	.
.	.	4dd\	.	4ff\	.	.	.	.	.	.	.	.
.	.	4cc\	.	4ee\	.	.	.	.	.	.	.	.
.	.	4b-X/	.	4dd\	.	.	.	.	.	.	.	.
!	!	!	!	!LO:SIC:v:t=custos dd	!	!	!	!	!	!	!	!
.	.	4a,/	.	4cc\	.	.	.	.	.	.	.	.
!LO:LB:g=original	!	!	!	!LO:LB:g=original	!	!	!	!	!	!	!	!
=31	=31	=31	=31	=31	=31	=31	=31	=31	=31	=31	=31	=31
1.BB-X,	6	4b-X/	.	4dd\	.	1%3r	.	1%3r	.	1%3r	.	.
.	.	4g/	.	4b-X/	.	.	.	.	.	.	.	.
.	.	4b-X/	.	4dd\	.	.	.	.	.	.	.	.
.	.	4a/	.	4cc\	.	.	.	.	.	.	.	.
.	.	4g/	.	4b-X/	.	.	.	.	.	.	.	.
.	.	4f,/	.	4a,/	.	.	.	.	.	.	.	.
2.C/	.	2e/	.	2g/	.	.	.	.	.	.	.	.
.	.	4f/	.	4a/	.	.	.	.	.	.	.	.
4BB-/	.	4g/	.	4b-/	.	.	.	.	.	.	.	.
!LO:TX:t=P:problem:kreska pseudotaktowa	!	!	!	!	!	!	!	!	!	!	!	!
2AA/	6	2a/	.	2cc,\	.	.	.	.	.	.	.	.
=32	=32	=32	=32	=32	=32	=32	=32	=32	=32	=32	=32	=32
2BB-X/	.	2f/	.	2dd\	.	1%3r	.	1%3r	.	1%3r	.	.
1C,	4:3	2.e/	.	2.g/	.	.	.	.	.	.	.	.
.	.	4e,/	.	4g,/	.	.	.	.	.	.	.	.
1.FF	.	4a/	.	2f/	.	.	.	.	.	.	.	.
.	.	4b-X/	.	.	.	.	.	.	.	.	.	.
.	.	4cc\	.	2r	.	.	.	.	.	.	.	.
.	.	4f/	.	.	.	.	.	.	.	.	.	.
.	.	4g/	.	2r,	.	.	.	.	.	.	.	.
.	.	4f,/	.	.	.	.	.	.	.	.	.	.
=33	=33	=33	=33	=33	=33	=33	=33	=33	=33	=33	=33	=33
!LO:TX:t=P:problem:kreska pseudotaktowa	!	!	!	!	!	!	!	!	!	!	!	!
1.C	.	2e/	.	4ee\	.	1%3r	.	1%3r	.	1%3r	.	.
.	.	.	.	4ff\	.	.	.	.	.	.	.	.
.	.	2.ee\	.	4gg\	.	.	.	.	.	.	.	.
.	.	.	.	4cc\	.	.	.	.	.	.	.	.
.	.	.	.	4dd\	.	.	.	.	.	.	.	.
.	.	4ee,\	.	4cc,\	.	.	.	.	.	.	.	.
1G	.	1dd	.	4b/	.	.	.	.	.	.	.	.
.	.	.	.	4cc\	.	.	.	.	.	.	.	.
.	.	.	.	4dd\	.	.	.	.	.	.	.	.
.	.	.	.	4g/	.	.	.	.	.	.	.	.
2F,\	.	2dd\	.	4a/	.	.	.	.	.	.	.	.
.	.	.	.	4b,/	.	.	.	.	.	.	.	.
=34	=34	=34	=34	=34	=34	=34	=34	=34	=34	=34	=34	=34
2E\	.	2ee\	.	2cc\	.	1%3r	.	1%3r	.	1%3r	.	.
2F\	.	2.dd\	.	2.cc\	.	.	.	.	.	.	.	.
!LO:TX:t=P:problem:kreska pseudotaktowa	!	!	!	!	!	!	!	!	!	!	!	!
2G\	.	.	.	.	.	.	.	.	.	.	.	.
.	.	4dd\	.	4b/	.	.	.	.	.	.	.	.
1.C	.	1.ee	.	1.cc;	.	.	.	.	.	.	.	.
=35||	=35||	=35||	=35||	=35||	=35||	=35||	=35||	=35||	=35||	=35||	=35||	=35||
*M2/1	*	*M2/1	*	*M2/1	*	*M2/1	*	*M2/1	*	*M2/1	*	*
*met(c)	*	*met(c)	*	*met(c)	*	*	*	*	*	*	*	*
!LO:TX:b:i:t=Alt sol&colon;	!	!LO:TX:a:t=10.	!	!LO:TX:a:t=10.	!	!LO:TX:a:t=Sed quo\nego\ntacet	!	!LO:TX:a:t=Sed quo ego\nTacet	!	!	!	!
1C	.	0r	.	0r	.	0ryy	.	0ryy	.	4r	.	.
.	.	.	.	.	.	.	.	.	.	8g\	Sed	.
.	.	.	.	.	.	.	.	.	.	8g\	quo	.
.	.	.	.	.	.	.	.	.	.	8e\	e-	.
.	.	.	.	.	.	.	.	.	.	8e\	-go	.
.	.	.	.	.	.	.	.	.	.	8f\	te	.
!	!	!	!	!	!	!	!	!	!	!LO:TX:t=P:problem:kreska pseudotaktowa	!	!
.	.	.	.	.	.	.	.	.	.	8g\	pre-	.
2AA/	7:6|	.	.	.	.	.	.	.	.	8.c/	-co-	.
.	.	.	.	.	.	.	.	.	.	16c/	-ni-	.
.	.	.	.	.	.	.	.	.	.	8.c/	-o	.
.	.	.	.	.	.	.	.	.	.	16B/	lau-	.
!LO:TX:t=P:problem:kreska pseudotaktowa	!	!	!	!	!	!	!	!	!	!	!	!
!LO:TX:t=P:problem: ligatura od góry i od dołu	!	!	!	!	!	!	!	!	!	!	!	!
[2GG/	.	.	.	.	.	.	.	.	.	4d\	-da-	.
.	.	.	.	.	.	.	.	.	.	4d\	-bo	.
!	!	!	!	!	!	!	!	!	!	!LO:LB:g=original	!	!
=36	=36	=36	=36	=36	=36	=36	=36	=36	=36	=36	=36	=36
2GG/]	.	0r	.	0r	.	0ryy	.	0ryy	.	8r	.	.
.	.	.	.	.	.	.	.	.	.	8d\	quem	.
.	.	.	.	.	.	.	.	.	.	8d\	ad-	.
.	.	.	.	.	.	.	.	.	.	8e\	-mi-	.
2D/	.	.	.	.	.	.	.	.	.	4.f\	-ra(n)-	.
!	!	!	!	!	!	!	!	!	!	!LO:TX:t=P:problem:kreska pseudotaktowa	!	!
.	.	.	.	.	.	.	.	.	.	8e\	-tur	.
!LO:TX:t=P:problem:kreska pseudotaktowa	!	!	!	!	!	!	!	!	!	!	!	!
!LO:TX:t=P:problem: ligatura od góry i od dołu	!	!	!	!	!	!	!	!	!	!	!	!
[1AA	#	.	.	.	.	.	.	.	.	8.e\	An-	.
.	.	.	.	.	.	.	.	.	.	16e\	-ge-	.
.	.	.	.	.	.	.	.	.	.	4e\	-li	.
.	.	.	.	.	.	.	.	.	.	8r	.	.
.	.	.	.	.	.	.	.	.	.	4a\	quem	.
!	!	!	!	!	!	!	!	!	!	!LO:TX:t=P:problem:kreska pseudotaktowa	!	!
.	.	.	.	.	.	.	.	.	.	8g\	coe-	.
=37	=37	=37	=37	=37	=37	=37	=37	=37	=37	=37	=37	=37
2AA/]	6 4 2	0r	.	0r	.	0ryy	.	0ryy	.	8g\	-le-	.
.	.	.	.	.	.	.	.	.	.	8g\	-stis	.
.	.	.	.	.	.	.	.	.	.	8g\	pa-	.
.	.	.	.	.	.	.	.	.	.	16g\	-tri-	.
.	.	.	.	.	.	.	.	.	.	16a\	-ae	.
!LO:TX:t=P:problem: ligatura od góry i od dołu	!	!	!	!	!	!	!	!	!	!	!	!
[2D,/	.	.	.	.	.	.	.	.	.	8.f\	in-	.
.	.	.	.	.	.	.	.	.	.	16f\	-co-	.
!	!	!	!	!	!	!	!	!	!	!LO:TX:t=P:problem:kreska pseudotaktowa	!	!
.	.	.	.	.	.	.	.	.	.	4f\	-lae	.
2D/]	.	.	.	.	.	.	.	.	.	4r	.	.
.	.	.	.	.	.	.	.	.	.	8e\	mi-	.
!	!	!	!	!	!	!	!	!	!	!LO:SIC:v:t=custos g	!	!
.	.	.	.	.	.	.	.	.	.	8e\	-ra-	.
!LO:SIC:v:t=custos C	!	!	!	!	!	!	!	!	!	!	!	!
!LO:N:acc=#	!	!	!	!	!	!	!	!	!	!LO:LB:g=original	!	!
2BBn/	6 -5	.	.	.	.	.	.	.	.	(8g\L	-bun-	.
.	.	.	.	.	.	.	.	.	.	8f\J)	.	.
.	.	.	.	.	.	.	.	.	.	8.f\	-do	.
.	.	.	.	.	.	.	.	.	.	16e\	ser-	.
!LO:LB:g=original	!	!	!	!	!	!	!	!	!	!	!	!
=38	=38	=38	=38	=38	=38	=38	=38	=38	=38	=38	=38	=38
2C/	.	0r	.	0r	.	0ryy	.	0ryy	.	8e\	-mo-	.
.	.	.	.	.	.	.	.	.	.	8e\	-ne	.
.	.	.	.	.	.	.	.	.	.	8.g\	mi-	.
.	.	.	.	.	.	.	.	.	.	16g\	-ra-	.
2E\	6 -5	.	.	.	.	.	.	.	.	8cc\L	-bun-	.
.	.	.	.	.	.	.	.	.	.	8b-X\J	.	.
.	.	.	.	.	.	.	.	.	.	8.b-X\	-do	.
.	.	.	.	.	.	.	.	.	.	16a\	ser-	.
2F\	.	.	.	.	.	.	.	.	.	8a\	-mo-	.
.	.	.	.	.	.	.	.	.	.	8a\	-ne	.
.	.	.	.	.	.	.	.	.	.	8.f\	ve-	.
.	.	.	.	.	.	.	.	.	.	16a\	-ne-	.
!LO:TX:t=P:problem:kreska pseudotaktowa	!	!	!	!	!	!	!	!	!	!	!	!
2BB-X/	.	.	.	.	.	.	.	.	.	8d\	-ra(n)-	.
.	.	.	.	.	.	.	.	.	.	8d\	-tur	.
.	.	.	.	.	.	.	.	.	.	8b-X\	ve-	.
.	.	.	.	.	.	.	.	.	.	8dd\	-ne-	.
=39	=39	=39	=39	=39	=39	=39	=39	=39	=39	=39	=39	=39
2C/	.	0r	.	0r	.	0ryy	.	0ryy	.	8e\L	-ran-	.
.	.	.	.	.	.	.	.	.	.	16f\L	.	.
.	.	.	.	.	.	.	.	.	.	16g\JJ	.	.
.	.	.	.	.	.	.	.	.	.	8c\L	.	.
.	.	.	.	.	.	.	.	.	.	16d\L	.	.
.	.	.	.	.	.	.	.	.	.	16e\JJ	.	.
!	!	!	!	!	!	!	!	!	!	!LO:LB:g=original	!	!
4.AA/	.	.	.	.	.	.	.	.	.	16f\LL	.	.
.	.	.	.	.	.	.	.	.	.	16g\	.	.
.	.	.	.	.	.	.	.	.	.	16a\	.	.
.	.	.	.	.	.	.	.	.	.	16b\JJ	.	.
.	.	.	.	.	.	.	.	.	.	8cc\	.	.
8BB-X/	.	.	.	.	.	.	.	.	.	16b-X\	-tur	.
.	.	.	.	.	.	.	.	.	.	16a\	et	.
2C/	4	.	.	.	.	.	.	.	.	4.g\	ce-	.
.	.	.	.	.	.	.	.	.	.	8f\	-le-	.
2FF/	3	.	.	.	.	.	.	.	.	2f\	-brant	.
!	!	!LO:LB:g=original	!	!	!	!	!	!	!	!	!	!
=40||	=40||	=40||	=40||	=40||	=40||	=40||	=40||	=40||	=40||	=40||	=40||	=40||
*M3/2	*	*M3/2	*	*M3/2	*	*M3/1	*	*M3/1	*	*M3/1	*	*
!	!	!LO:TX:a:t=31.	!	!LO:TX:b:t=30.	!	!LO:TX:a:t=Sinfo\ntac&colon;	!	!LO:TX:a:t=Sinfonia\nTacet	!	!	!	!
2FF/	.	1%3r	.	1%3r	.	1%3ryy	.	1%3ryy	.	2a\	O	.
2GG/	.	.	.	.	.	.	.	.	.	2g\	so-	.
2AA,/	.	.	.	.	.	.	.	.	.	2e\	-nent	.
2.D/	.	.	.	.	.	.	.	.	.	2.f\	me-	.
4C/	.	.	.	.	.	.	.	.	.	4e\	-li-	.
!LO:TX:t=P:problem:kreska pseudotaktowa	!	!	!	!	!	!	!	!	!	!	!	!
2BB-X/	.	.	.	.	.	.	.	.	.	2d\	-cis	.
=41	=41	=41	=41	=41	=41	=41	=41	=41	=41	=41	=41	=41
1GG	-	1%3r	.	1%3r	.	1%3ryy	.	1%3ryy	.	2.e\	ae-	.
.	.	.	.	.	.	.	.	.	.	4d\	-the-	.
2AA/	.	.	.	.	.	.	.	.	.	2c#X/	-ra	.
!LO:TX:t=P:problem:kreska pseudotaktowa	!	!	!	!	!	!	!	!	!	!	!	!
1.D	#	.	.	.	.	.	.	.	.	2.d\	vo-	.
.	.	.	.	.	.	.	.	.	.	4d\	-ci-	.
!	!	!	!	!	!	!	!	!	!	!LO:SIC:v:t=custos f	!	!
.	.	.	.	.	.	.	.	.	.	2d\	-bus	.
!	!	!	!	!	!	!	!	!	!	!LO:LB:g=original	!	!
=42	=42	=42	=42	=42	=42	=42	=42	=42	=42	=42	=42	=42
2D/	#	1%3r	.	1%3r	.	1%3ryy	.	1%3ryy	.	(4f\	cho-	.
.	.	.	.	.	.	.	.	.	.	4a\)	.	.
2C/	.	.	.	.	.	.	.	.	.	(4g\	-ris	.
!	!	!	!	!	!	!	!	!	!	!LO:TX:a:t=P:problem:♭ above	!	!
.	.	.	.	.	.	.	.	.	.	4b-X\)	.	.
2AA,/	6|	.	.	.	.	.	.	.	.	(4a\	An-	.
!	!	!	!	!	!	!	!	!	!	!LO:TX:t=P:problem:kreska pseudotaktowa	!	!
.	.	.	.	.	.	.	.	.	.	4cc\)	.	.
!LO:TX:t=P:problem:kreska pseudotaktowa	!	!	!	!	!	!	!	!	!	!	!	!
1.GG	-	.	.	.	.	.	.	.	.	2.b-X\	-ge-	.
.	.	.	.	.	.	.	.	.	.	4b-\	-li-	.
!	!	!	!	!	!	!	!	!	!	!LO:TX:t=P:problem:kreska pseudotaktowa	!	!
.	.	.	.	.	.	.	.	.	.	2b-\	-cis	.
=43	=43	=43	=43	=43	=43	=43	=43	=43	=43	=43	=43	=43
1.D	#	1%3r	.	1%3r	.	1%3ryy	.	1%3ryy	.	2.f#X\	jŭn-	.
.	.	.	.	.	.	.	.	.	.	4e\	-gi-	.
!	!	!	!	!	!	!	!	!	!	!LO:TX:t=P:problem:kreska pseudotaktowa	!	!
.	.	.	.	.	.	.	.	.	.	2d\	-te	.
2.BB-X/	.	.	.	.	.	.	.	.	.	2.dd\	jun-	.
4AA/	.	.	.	.	.	.	.	.	.	4cc\	-gi-	.
!LO:SIC:v:t=custos C	!	!	!	!	!	!	!	!	!	!LO:TX:t=P:problem:kreska pseudotaktowa	!	!
2GG/	-	.	.	.	.	.	.	.	.	2b-X\	-te	.
!LO:LB:g=original	!	!	!	!	!	!	!	!	!	!	!	!
=44	=44	=44	=44	=44	=44	=44	=44	=44	=44	=44	=44	=44
2C/	-7r 5	1%3r	.	1%3r	.	1%3ryy	.	1%3ryy	.	(4cc\	car-	.
.	.	.	.	.	.	.	.	.	.	4b-X\)	.	.
2D/	4	.	.	.	.	.	.	.	.	2.a\	.	.
!LO:TX:t=P:problem:kreska pseudotaktowa	!	!	!	!	!	!	!	!	!	!	!	!
2DD/	#	.	.	.	.	.	.	.	.	.	.	.
.	.	.	.	.	.	.	.	.	.	4g\	-mi-	.
1.GG,	.	.	.	.	.	.	.	.	.	1g	-na	.
.	.	.	.	.	.	.	.	.	.	2r	.	.
=45	=45	=45	=45	=45	=45	=45	=45	=45	=45	=45	=45	=45
2GG/	.	1%3r	.	1%3r	.	1%3ryy	.	1%3ryy	.	(4B/	cho-	.
.	.	.	.	.	.	.	.	.	.	4d/)	.	.
2AA/	6	.	.	.	.	.	.	.	.	(4c\	-ris	.
.	.	.	.	.	.	.	.	.	.	4e\)	.	.
2BB,/	6	.	.	.	.	.	.	.	.	(4d\	An-	.
!	!	!	!	!	!	!	!	!	!	!LO:SIC:v:t=custos e	!	!
.	.	.	.	.	.	.	.	.	.	4f\)	.	.
!LO:TX:t=P:problem:kreska pseudotaktowa	!	!	!	!	!	!	!	!	!	!	!	!
!	!	!	!	!	!	!	!	!	!	!LO:LB:g=original	!	!
1.C	.	.	.	.	.	.	.	.	.	2.e\	-ge-	.
.	.	.	.	.	.	.	.	.	.	4d\	-li-	.
!	!	!	!	!	!	!	!	!	!	!LO:TX:t=P:problem:kreska pseudotaktowa	!	!
.	.	.	.	.	.	.	.	.	.	2c/	-cis	.
=46	=46	=46	=46	=46	=46	=46	=46	=46	=46	=46	=46	=46
2C/	.	1%3r	.	1%3r	.	1%3ryy	.	1%3ryy	.	(4e\	cho-	.
.	.	.	.	.	.	.	.	.	.	4g\)	.	.
2D/	-6r	.	.	.	.	.	.	.	.	(4f\	-ris	.
.	.	.	.	.	.	.	.	.	.	4a\)	.	.
2E,\	.	.	.	.	.	.	.	.	.	4g\	an-	.
!	!	!	!	!	!	!	!	!	!	!LO:TX:t=P:problem:kreska pseudotaktowa	!	!
!	!	!	!	!	!	!	!	!	!	!LO:TX:a:t=P:problem:♭ above	!	!
.	.	.	.	.	.	.	.	.	.	4b-X\	.	.
1.F	.	.	.	.	.	.	.	.	.	2.a\	-ge-	.
.	.	.	.	.	.	.	.	.	.	4g\	-li-	.
.	.	.	.	.	.	.	.	.	.	2f\	-cis	.
=47	=47	=47	=47	=47	=47	=47	=47	=47	=47	=47	=47	=47
!LO:TX:t=P:problem:kreska pseudotaktowa	!	!	!	!	!	!	!	!	!	!	!	!
1.C	.	1%3r	.	1%3r	.	1%3ryy	.	1%3ryy	.	2.e\	jŭn-	.
.	.	.	.	.	.	.	.	.	.	4d\	-gi-	.
!	!	!	!	!	!	!	!	!	!	!LO:TX:t=P:problem:kreska pseudotaktowa	!	!
.	.	.	.	.	.	.	.	.	.	2c/	-te	.
1AA	6	.	.	.	.	.	.	.	.	2.cc\	jŭn-	.
!	!	!	!	!	!	!	!	!	!	!LO:TX:a:t=P:problem:♭ above	!	!
.	.	.	.	.	.	.	.	.	.	4b-X\	-gi-	.
2D,/	.	.	.	.	.	.	.	.	.	2a\	-te	.
=48	=48	=48	=48	=48	=48	=48	=48	=48	=48	=48	=48	=48
2BB-X/	.	1%3r	.	1%3r	.	1%3ryy	.	1%3ryy	.	(4b-X\	car-	.
.	.	.	.	.	.	.	.	.	.	4dd\)	.	.
!LO:TX:t=P:problem:kreska pseudotaktowa	!	!	!	!	!	!	!	!	!	!	!	!
1C	4:3	.	.	.	.	.	.	.	.	2.g\	.	.
.	.	.	.	.	.	.	.	.	.	4f\	-mi-	.
1.FF,	.	.	.	.	.	.	.	.	.	1f	-na	.
.	.	.	.	.	.	.	.	.	.	2r	.	.
=49	=49	=49	=49	=49	=49	=49	=49	=49	=49	=49	=49	=49
!LO:TX:t=P:problem:kreska pseudotaktowa	!	!	!	!	!	!	!	!	!	!	!	!
1.FF	.	1%3r	.	1%3r	.	1%3ryy	.	1%3ryy	.	2.a\	jun-	.
.	.	.	.	.	.	.	.	.	.	4g\	-gi-	.
!	!	!	!	!	!	!	!	!	!	!LO:SIC:v:t=custos e	!	!
.	.	.	.	.	.	.	.	.	.	2f\	-te	.
!	!	!	!	!	!	!	!	!	!	!LO:LB:g=original	!	!
1.C	.	.	.	.	.	.	.	.	.	2.e\	gau-	.
.	.	.	.	.	.	.	.	.	.	4f\	-di-	.
!	!	!	!	!	!	!	!	!	!	!LO:TX:t=P:problem:kreska pseudotaktowa	!	!
.	.	.	.	.	.	.	.	.	.	2g\	-a	.
=50	=50	=50	=50	=50	=50	=50	=50	=50	=50	=50	=50	=50
!LO:TX:t=P:problem:kreska pseudotaktowa	!	!	!	!	!	!	!	!	!	!	!	!
1.D	.	1%3r	.	1%3r	.	1%3ryy	.	1%3ryy	.	2.f\	jun-	.
.	.	.	.	.	.	.	.	.	.	4e\	-gi-	.
.	.	.	.	.	.	.	.	.	.	2d\	-te	.
1.AA	#	.	.	.	.	.	.	.	.	2.c#X/	ju-	.
.	.	.	.	.	.	.	.	.	.	4B/	-bi-	.
!	!	!	!	!	!	!	!	!	!	!LO:TX:t=P:problem:kreska pseudotaktowa	!	!
.	.	.	.	.	.	.	.	.	.	2A/	-la	.
=51	=51	=51	=51	=51	=51	=51	=51	=51	=51	=51	=51	=51
2AA/	.	1%3r	.	1%3r	.	1%3ryy	.	1%3ryy	.	(4c#X\	jun-	.
.	.	.	.	.	.	.	.	.	.	4e\)	.	.
2BB/	.	.	.	.	.	.	.	.	.	(4d\	-gi-	.
.	.	.	.	.	.	.	.	.	.	4f\)	.	.
!LO:SIC:v:t=custos D	!	!	!	!	!	!	!	!	!	!	!	!
2C#X/	.	.	.	.	.	.	.	.	.	(4e\	-te	.
!	!	!	!	!	!	!	!	!	!	!LO:TX:t=P:problem:kreska pseudotaktowa	!	!
.	.	.	.	.	.	.	.	.	.	4g\)	.	.
!LO:LB:g=original	!	!	!	!	!	!	!	!	!	!	!	!
1.D	-	.	.	.	.	.	.	.	.	4f\	can-	.
.	.	.	.	.	.	.	.	.	.	4e\	.	.
.	.	.	.	.	.	.	.	.	.	4f\	.	.
.	.	.	.	.	.	.	.	.	.	4g\	.	.
.	.	.	.	.	.	.	.	.	.	4a\	.	.
.	.	.	.	.	.	.	.	.	.	4b\	.	.
=52	=52	=52	=52	=52	=52	=52	=52	=52	=52	=52	=52	=52
1.AA	6	1%3r	.	1%3r	.	1%3ryy	.	1%3ryy	.	4cc\	.	.
.	.	.	.	.	.	.	.	.	.	4b-X\	.	.
.	.	.	.	.	.	.	.	.	.	4cc\	.	.
.	.	.	.	.	.	.	.	.	.	4f\	.	.
.	.	.	.	.	.	.	.	.	.	4e\	.	.
!	!	!	!	!	!	!	!	!	!	!LO:TX:t=P:problem:kreska pseudotaktowa	!	!
.	.	.	.	.	.	.	.	.	.	4f\	.	.
1.BB-X	6	.	.	.	.	.	.	.	.	4d\	.	.
.	.	.	.	.	.	.	.	.	.	4c\	.	.
.	.	.	.	.	.	.	.	.	.	4d\	.	.
.	.	.	.	.	.	.	.	.	.	4b-X\	.	.
.	.	.	.	.	.	.	.	.	.	4a\	.	.
!	!	!	!	!	!	!	!	!	!	!LO:SIC:v:t=custos g	!	!
.	.	.	.	.	.	.	.	.	.	4b-\	.	.
!	!	!	!	!	!	!	!	!	!	!LO:LB:g=original	!	!
=53	=53	=53	=53	=53	=53	=53	=53	=53	=53	=53	=53	=53
!LO:TX:t=P:problem:kreska pseudotaktowa	!	!	!	!	!	!	!	!	!	!	!	!
1.C	.	1%3r	.	1%3r	.	1%3ryy	.	1%3ryy	.	4g\	.	.
.	.	.	.	.	.	.	.	.	.	4f\	.	.
.	.	.	.	.	.	.	.	.	.	4g\	.	.
.	.	.	.	.	.	.	.	.	.	4c/	.	.
!	!	!	!	!	!	!	!	!	!	!LO:SIC:v:s=4B-/	!	!
.	.	.	.	.	.	.	.	.	.	4B/	.	.
!	!	!	!	!	!	!	!	!	!	!LO:TX:t=P:problem:kreska pseudotaktowa	!	!
.	.	.	.	.	.	.	.	.	.	4c/	.	.
1.F	.	.	.	.	.	.	.	.	.	4A/	.	.
!	!	!	!	!	!	!	!	!	!	!LO:SIC:v:s=4B-/	!	!
.	.	.	.	.	.	.	.	.	.	4B/	.	.
.	.	.	.	.	.	.	.	.	.	4c/	.	.
.	.	.	.	.	.	.	.	.	.	4d\	.	.
.	.	.	.	.	.	.	.	.	.	4e\	.	.
.	.	.	.	.	.	.	.	.	.	4f\	.	.
=54	=54	=54	=54	=54	=54	=54	=54	=54	=54	=54	=54	=54
!	!	!	!	!LO:SIC:v:t=custos cc	!	!	!	!	!	!	!	!
1E	6	1%3r	.	1%3r	.	1%3ryy	.	1%3ryy	.	4g\	.	.
.	.	.	.	.	.	.	.	.	.	4f\	.	.
.	.	.	.	.	.	.	.	.	.	4g\	.	.
.	.	.	.	.	.	.	.	.	.	4e\	.	.
[2F,\	.	.	.	.	.	.	.	.	.	4a\	.	.
.	.	.	.	.	.	.	.	.	.	4cc\	.	.
2F\]	.	.	.	.	.	.	.	.	.	4f\	.	.
.	.	.	.	.	.	.	.	.	.	4a\	.	.
!LO:TX:t=P:problem:kreska pseudotaktowa	!	!	!	!	!	!	!	!	!	!	!	!
1G	4:3	.	.	.	.	.	.	.	.	2.d\	.	.
.	.	.	.	.	.	.	.	.	.	4c/	-ti-	.
!	!	!	!	!LO:LB:g=original	!	!	!	!	!	!	!	!
=55	=55	=55	=55	=55	=55	=55	=55	=55	=55	=55	=55	=55
1.C,	.	1.r	.	4cc\	.	1%3ryy	.	1%3ryy	.	2c/	-ca	.
.	.	.	.	4dd\	.	.	.	.	.	.	.	.
.	.	.	.	4ee\	.	.	.	.	.	2r	.	.
.	.	.	.	4ff\	.	.	.	.	.	.	.	.
.	.	.	.	4gg\	.	.	.	.	.	2r	.	.
.	.	.	.	4aa,\	.	.	.	.	.	.	.	.
2GG/	-	4g/	.	2.bb-X\	.	.	.	.	.	1.r	.	.
.	.	4a/	.	.	.	.	.	.	.	.	.	.
!	!	!LO:SIC:v:s=4b-/	!	!	!	!	!	!	!	!	!	!
1G,	.	4b/	.	.	.	.	.	.	.	.	.	.
.	.	4cc\	.	4bb-\	.	.	.	.	.	.	.	.
.	.	4dd\	.	4b-X/	.	.	.	.	.	.	.	.
.	.	4ee,\	.	4cc,\	.	.	.	.	.	.	.	.
=56	=56	=56	=56	=56	=56	=56	=56	=56	=56	=56	=56	=56
!LO:TX:t=P:problem:kreska pseudotaktowa	!	!	!	!	!	!	!	!	!	!	!	!
1.D	.	4ff\	.	4dd\	.	1%3ryy	.	1%3ryy	.	1%3r	.	.
.	.	4ee\	.	4cc\	.	.	.	.	.	.	.	.
.	.	4ff\	.	4dd\	.	.	.	.	.	.	.	.
.	.	4gg\	.	4ee\	.	.	.	.	.	.	.	.
.	.	4aa\	.	4ff\	.	.	.	.	.	.	.	.
!	!	!LO:SIC:v:s=4bb-\	!	!	!	!	!	!	!	!	!	!
.	.	4bb\	.	4gg,\	.	.	.	.	.	.	.	.
2AA/	.	2ccc\	.	2aa\	.	.	.	.	.	.	.	.
2BB-X/	.	4bb-X\	.	4gg\	.	.	.	.	.	.	.	.
.	.	4aa\	.	4ff\	.	.	.	.	.	.	.	.
2C,/	.	4gg\	.	4ee\	.	.	.	.	.	.	.	.
.	.	4aa\	.	4ff#X\	.	.	.	.	.	.	.	.
=57	=57	=57	=57	=57	=57	=57	=57	=57	=57	=57	=57	=57
2GG/	-	2bb-X\	.	2gg\	.	1%3ryy	.	1%3ryy	.	1.r	.	.
2C/	.	2.aa\	.	2.gg\	.	.	.	.	.	.	.	.
!LO:TX:t=P:problem:kreska pseudotaktowa	!	!	!	!	!	!	!	!	!	!	!	!
2D/	#	.	.	.	.	.	.	.	.	.	.	.
.	.	4aa\	.	4ff#X,\	.	.	.	.	.	.	.	.
1.G	.	1gg	.	4gg\	.	.	.	.	.	1.r	.	.
.	.	.	.	4g/	.	.	.	.	.	.	.	.
.	.	.	.	4b-X/	.	.	.	.	.	.	.	.
.	.	.	.	4cc\	.	.	.	.	.	.	.	.
.	.	2r	.	4dd\	.	.	.	.	.	.	.	.
.	.	.	.	4ee,\	.	.	.	.	.	.	.	.
=58	=58	=58	=58	=58	=58	=58	=58	=58	=58	=58	=58	=58
!LO:TX:t=P:problem:kreska pseudotaktowa	!	!	!	!	!	!	!	!	!	!	!	!
1.D	7:6|	4f/	.	2ff\	.	1%3ryy	.	1%3ryy	.	1%3r	.	.
.	.	4d/	.	.	.	.	.	.	.	.	.	.
.	.	4f/	.	2.ff\	.	.	.	.	.	.	.	.
.	.	4g/	.	.	.	.	.	.	.	.	.	.
.	.	4a/	.	.	.	.	.	.	.	.	.	.
.	.	4b,/	.	4ff,\	.	.	.	.	.	.	.	.
1.C,	.	4cc\	.	4ee\	.	.	.	.	.	.	.	.
.	.	4dd\	.	4ff\	.	.	.	.	.	.	.	.
.	.	4ee\	.	4gg\	.	.	.	.	.	.	.	.
.	.	4cc\	.	4ee\	.	.	.	.	.	.	.	.
.	.	4dd\	.	4ff\	.	.	.	.	.	.	.	.
!	!	!	!	!LO:SIC:v:t=custos aa	!	!	!	!	!	!	!	!
.	.	4ee,\	.	4gg\	.	.	.	.	.	.	.	.
!	!	!	!	!LO:LB:g=original	!	!	!	!	!	!	!	!
=59	=59	=59	=59	=59	=59	=59	=59	=59	=59	=59	=59	=59
1FF	.	2.ff\	.	2.aa\	.	1%3ryy	.	1%3ryy	.	1.r	.	.
.	.	4ee\	.	4gg\	.	.	.	.	.	.	.	.
2AA,/	.	4dd\	.	4ff\	.	.	.	.	.	.	.	.
!	!	!LO:SIC:v:t=custos cc	!	!	!	!	!	!	!	!	!	!
.	.	4cc\	.	4ee,\	.	.	.	.	.	.	.	.
!	!	!LO:LB:g=original	!	!	!	!	!	!	!	!	!	!
2FF/	6 5	2cc\	.	2dd\	.	.	.	.	.	1.r	.	.
!LO:SIC:v:t=custos C	!	!	!	!	!	!	!	!	!	!	!	!
1GG	4:3	2.cc\	.	2.dd\	.	.	.	.	.	.	.	.
!	!	!LO:N:acc=#	!	!	!	!	!	!	!	!	!	!
.	.	4bn/	.	4dd,\	.	.	.	.	.	.	.	.
!LO:LB:g=original	!	!	!	!	!	!	!	!	!	!	!	!
=60	=60	=60	=60	=60	=60	=60	=60	=60	=60	=60	=60	=60
2.C/	.	1.cc	.	2.ee\	.	1%3ryy	.	1%3ryy	.	1%3r	.	.
4D/	.	.	.	4ff\	.	.	.	.	.	.	.	.
2E,\	.	.	.	2gg\	.	.	.	.	.	.	.	.
!	!	!	!LO:DY:a	!	!	!	!	!	!	!	!	!
!	!	!	!LO:DY:t=pian	!	!	!	!	!	!	!	!	!
2F\	.	2cc\	p	2aa\	.	.	.	.	.	.	.	.
!LO:TX:t=P:problem:kreska pseudotaktowa	!	!	!	!	!	!	!	!	!	!	!	!
1G	4:3	2.cc\	.	1dd	.	.	.	.	.	.	.	.
!	!	!LO:N:acc=#	!	!	!	!	!	!	!	!	!	!
.	.	4bn/	.	.	.	.	.	.	.	.	.	.
=61	=61	=61	=61	=61	=61	=61	=61	=61	=61	=61	=61	=61
1.C	.	1.cc	.	1.ee	.	1.ryy	.	1.ryy	.	1.r	.	.
!	!	!	!	!	!	!LO:LB:g=original	!	!	!	!	!	!
=62||	=62||	=62||	=62||	=62||	=62||	=62||	=62||	=62||	=62||	=62||	=62||	=62||
*M2/1	*	*M2/1	*	*M2/1	*	*M2/1	*	*M2/1	*	*M2/1	*	*
*met(c)	*	*met(c|)	*	*met(c)	*	*met(c)	*	*	*	*	*	*
!LO:TX:b:i:t=Ten. sol&colon;	!	!	!	!LO:TX:a:t=7.	!	!	!	!	!	!LO:TX:a:t=Et ego\ntacet	!	!
!	!	!	!	!LO:TX:t-P:problem: cyfra 7 oznacająca pauzy przekreślona i poniżej ołówkiem dopisana cyfra 8	!	!	!	!	!	!	!	!
1C	.	0r	.	0r	.	0r	.	4r	.	0ryy	.	.
.	.	.	.	.	.	.	.	8r	.	.	.	.
.	.	.	.	.	.	.	.	8G/	Et	.	.	.
.	.	.	.	.	.	.	.	8E/	e-	.	.	.
.	.	.	.	.	.	.	.	8E/	-go	.	.	.
.	.	.	.	.	.	.	.	8r	.	.	.	.
!	!	!	!	!	!	!	!	!LO:TX:t=P:problem:kreska pseudotaktowa	!	!	!	!
.	.	.	.	.	.	.	.	8c\	et	.	.	.
2F\	.	.	.	.	.	.	.	8A/	e-	.	.	.
.	.	.	.	.	.	.	.	8A/	-go	.	.	.
.	.	.	.	.	.	.	.	8B\	quo	.	.	.
!	!	!	!	!	!	!	!	!LO:SIC:v:t=custos G	!	!	!	!
.	.	.	.	.	.	.	.	8c\	prae-	.	.	.
!	!	!	!	!	!	!	!	!LO:LB:g=original	!	!	!	!
2E,\	6	.	.	.	.	.	.	8.G/	-co-	.	.	.
.	.	.	.	.	.	.	.	16G/	-ni-	.	.	.
.	.	.	.	.	.	.	.	8.G/	-o	.	.	.
!	!	!	!	!	!	!	!	!LO:TX:t=P:problem:kreska pseudotaktowa	!	!	!	!
.	.	.	.	.	.	.	.	16A/	laŭ-	.	.	.
=63	=63	=63	=63	=63	=63	=63	=63	=63	=63	=63	=63	=63
2D/	7:6	0r	.	0r	.	0r	.	16F/LL	-da-	0ryy	.	.
.	.	.	.	.	.	.	.	16E/	.	.	.	.
.	.	.	.	.	.	.	.	16F/	.	.	.	.
.	.	.	.	.	.	.	.	16G/JJ	.	.	.	.
.	.	.	.	.	.	.	.	8.F/	.	.	.	.
.	.	.	.	.	.	.	.	16E/	-bo	.	.	.
!LO:TX:t=P:problem:kreska pseudotaktowa	!	!	!	!	!	!	!	!LO:TX:t=P:problem:kreska pseudotaktowa	!	!	!	!
2C/	.	.	.	.	.	.	.	2E/	te,	.	.	.
[2C/	6| 4 2	.	.	.	.	.	.	8r	.	.	.	.
.	.	.	.	.	.	.	.	8c\	que(m)	.	.	.
.	.	.	.	.	.	.	.	8.A/	ad-	.	.	.
.	.	.	.	.	.	.	.	16G/	-mi-	.	.	.
4C/]	.	.	.	.	.	.	.	8F#X/	-ra(n)-	.	.	.
.	.	.	.	.	.	.	.	8D/	-tur	.	.	.
4BB-X/	.	.	.	.	.	.	.	8G/L	an-	.	.	.
.	.	.	.	.	.	.	.	16A/L	.	.	.	.
!	!	!	!	!	!	!	!	!LO:TX:t=P:problem:kreska pseudotaktowa	!	!	!	!
.	.	.	.	.	.	.	.	16B/JJ	.	.	.	.
=64	=64	=64	=64	=64	=64	=64	=64	=64	=64	=64	=64	=64
2AA/	.	0r	.	0r	.	0r	.	4.c\	.	0ryy	.	.
.	.	.	.	.	.	.	.	8B-X\	-ge-	.	.	.
!LO:TX:t=P:problem:kreska pseudotaktowa	!	!	!	!	!	!	!	!	!	!	!	!
2GG/	.	.	.	.	.	.	.	8B-\	-li	.	.	.
.	.	.	.	.	.	.	.	8d\	quem	.	.	.
.	.	.	.	.	.	.	.	8e-X\	ad-	.	.	.
.	.	.	.	.	.	.	.	8f\	-mi-	.	.	.
2C/	.	.	.	.	.	.	.	4.e-X\	-ran-	.	.	.
.	.	.	.	.	.	.	.	8A/	-tur	.	.	.
!	!	!	!	!	!	!	!	!LO:LB:g=original	!	!	!	!
2D/	4:3	.	.	.	.	.	.	4.A/	an-	.	.	.
.	.	.	.	.	.	.	.	8G/	-ge-	.	.	.
=65	=65	=65	=65	=65	=65	=65	=65	=65	=65	=65	=65	=65
!LO:TX:t=P:problem: verte sit przekreślone	!	!	!	!	!	!	!	!	!	!	!	!
!LO:TX:t=Verte Sit.	!	!	!	!	!	!	!	!	!	!	!	!
!LO:TX:t=P:problem:kreska pseudotaktowa	!	!	!	!	!	!	!	!	!	!	!	!
!LO:SIC:v:t=custos G	!	!	!	!	!	!	!	!	!	!	!	!
1GG	.	1r	.	1r	.	1r	.	1G	-li	1ryy	.	.
!LO:LB:g=original	!	!	!	!	!	!	!	!	!	!	!	!
=66||	=66||	=66||	=66||	=66||	=66||	=66||	=66||	=66||	=66||	=66||	=66||	=66||
*M3/2	*	*M3/2	*	*M3/2	*	*M3/2	*	*M3/2	*	*M3/1	*	*
!	!	!LO:TX:a:t=27.	!	!LO:TX:a:t=28.	!	!	!	!	!	!LO:TX:a:t=Sinfonia\ntacet	!	!
2G\	-	1%3r	.	1%3r	.	2G\	O	2B-X\	o	1%3ryy	.	.
2F\	.	.	.	.	.	2F\	so-	2A/	so-	.	.	.
2E\	.	.	.	.	.	2E\	-nent	2G/	-nent	.	.	.
1.D	-	.	.	.	.	2.D/	me-	2.F/	me-	.	.	.
.	.	.	.	.	.	4C#X/	-li-	4E/	-li-	.	.	.
!	!	!	!	!	!	!LO:TX:t=P:problem:kreska pseudotaktowa	!	!	!	!	!	!
.	.	.	.	.	.	2D/	-cis	2F/	-cis	.	.	.
=67	=67	=67	=67	=67	=67	=67	=67	=67	=67	=67	=67	=67
1GG	.	1%3r	.	1%3r	.	2.GG/	ae-	2.G/	ae-	1%3ryy	.	.
.	.	.	.	.	.	4GG/	-the-	4F/	-the-	.	.	.
!LO:TX:t=P:problem:kreska pseudotaktowa	!	!	!	!	!	!	!	!	!	!	!	!
2AA/	#	.	.	.	.	2AA/	-ra	2E/	-ra	.	.	.
1.D,	-	.	.	.	.	2.D/	vo-	2.F/	vo-	.	.	.
.	.	.	.	.	.	4D/	-ci-	4F/	-ci-	.	.	.
.	.	.	.	.	.	2D/	-bus	2F/	-bus	.	.	.
=68	=68	=68	=68	=68	=68	=68	=68	=68	=68	=68	=68	=68
2D/	.	1%3r	.	1%3r	.	2D/	ô	2f\	o	1%3ryy	.	.
2C/	.	.	.	.	.	2C/	so-	2e\	so-	.	.	.
2BB-X,/	.	.	.	.	.	2BB-X/	-nent	2d\	-nent	.	.	.
2.AA/	.	.	.	.	.	2.AA/	me-	2.c\	me-	.	.	.
4GG/	.	.	.	.	.	4GG/	-li-	4B\	-li-	.	.	.
!LO:TX:t=P:problem:kreska pseudotaktowa	!	!	!	!	!	!	!	!	!	!	!	!
2FF/	.	.	.	.	.	2FF/	-cis	2A\	-cis	.	.	.
=69	=69	=69	=69	=69	=69	=69	=69	=69	=69	=69	=69	=69
1BB-X	.	1%3r	.	1%3r	.	2.BB-X/	ae-	2.B-X\	ae-	1%3ryy	.	.
.	.	.	.	.	.	4BB-/	-the-	4A/	-the-	.	.	.
2C,/	.	.	.	.	.	2C/	-ra	2G/	-ra	.	.	.
!LO:TX:t=P:problem:kreska pseudotaktowa	!	!	!	!	!	!	!	!	!	!	!	!
!	!	!	!	!	!	!LO:LB:g=original	!	!LO:LB:g=original	!	!	!	!
1.FF	.	.	.	.	.	2.FF/	vo-	2.A/	vo-	.	.	.
.	.	.	.	.	.	4FF/	-ci-	4A/	-ci-	.	.	.
!	!	!	!	!	!	!LO:TX:t=P:problem:kreska pseudotaktowa	!	!	!	!	!	!
.	.	.	.	.	.	2FF/	-bus	2A/	-bus	.	.	.
=70	=70	=70	=70	=70	=70	=70	=70	=70	=70	=70	=70	=70
2F\	.	1%3r	.	1%3r	.	(4F\	cho-	(4A\	cho-	1%3ryy	.	.
.	.	.	.	.	.	4A\)	.	4c\)	.	.	.	.
2G\	.	.	.	.	.	(4G\	-ris	(4B\	-ris	.	.	.
.	.	.	.	.	.	4B-X\)	.	4d\)	.	.	.	.
2A,\	.	.	.	.	.	(4A\	an-	(4c\	an-	.	.	.
!	!	!	!	!	!	!	!	!LO:TX:a:t=P:problem:♭ above	!	!	!	!
.	.	.	.	.	.	4c\)	.	4e-X\)	.	.	.	.
!LO:TX:t=P:problem:kreska pseudotaktowa	!	!	!	!	!	!	!	!	!	!	!	!
1.B-X	.	.	.	.	.	2.B-\	-ge-	2.d\	-ge-	.	.	.
.	.	.	.	.	.	4B-\	-li-	4d\	-li-	.	.	.
!	!	!	!	!	!	!LO:TX:t=P:problem:kreska pseudotaktowa	!	!	!	!	!	!
.	.	.	.	.	.	2B-\	-cis	2d\	-cis	.	.	.
=71	=71	=71	=71	=71	=71	=71	=71	=71	=71	=71	=71	=71
2BB-X/	.	1%3r	.	1%3r	.	(4BB-X/	cho-	(4D/	cho-	1%3ryy	.	.
.	.	.	.	.	.	4D/)	.	4F/)	.	.	.	.
2C/	.	.	.	.	.	(4C/	-ris	(4E/	-ris	.	.	.
.	.	.	.	.	.	4E-X/)	.	4G/)	.	.	.	.
2D,/	.	.	.	.	.	(4D\	an-	(4F#X/	an-	.	.	.
!	!	!	!	!	!	!LO:TX:t=P:problem:kreska pseudotaktowa	!	!	!	!	!	!
.	.	.	.	.	.	4F\)	.	4A/)	.	.	.	.
!LO:TX:t=P:problem:kreska pseudotaktowa	!	!	!	!	!	!	!	!	!	!	!	!
1.E-X	.	.	.	.	.	2.E-\	-ge-	2.G/	-ge-	.	.	.
.	.	.	.	.	.	4E-\	-li-	4G/	-li-	.	.	.
.	.	.	.	.	.	2E-\	-cis	2G/	-cis	.	.	.
=72	=72	=72	=72	=72	=72	=72	=72	=72	=72	=72	=72	=72
1C	.	1%3r	.	1%3r	.	2.C/	iun-	2.c\	iun-	1%3ryy	.	.
.	.	.	.	.	.	4C/	-gi-	4B-X\	-gi-	.	.	.
2D,/	.	.	.	.	.	2D/	-te	2A/	-te	.	.	.
2.GG/	.	.	.	.	.	2.GG/	car-	2.B-X\	car-	.	.	.
4AA/	.	.	.	.	.	4AA/	-mi-	4c\	-mi-	.	.	.
!LO:SIC:v:t=custos C	!	!	!	!	!	!LO:SIC:v:t=custos C	!	!LO:SIC:v:t=custos e	!	!	!	!
2BB-X/	.	.	.	.	.	2BB-X/	-na	2d\	-na	.	.	.
!LO:LB:g=original	!	!	!	!	!	!LO:LB:g=original	!	!LO:LB:g=original	!	!	!	!
=73	=73	=73	=73	=73	=73	=73	=73	=73	=73	=73	=73	=73
2.C/	.	1%3r	.	1%3r	.	2.C/	jŭn-	2.e-X\	iun-	1%3ryy	.	.
4D/	.	.	.	.	.	4D/	-gi-	4f\	-gi-	.	.	.
2E-X,\	.	.	.	.	.	2E-X\	-te	2g\	-te	.	.	.
2C/	.	.	.	.	.	(2C/	car-	(4c\	car-	.	.	.
.	.	.	.	.	.	.	.	4B-X\)	.	.	.	.
!LO:TX:t=P:problem:kreska pseudotaktowa	!	!	!	!	!	!	!	!	!	!	!	!
1D	4:3	.	.	.	.	2.D/)	.	2.A/	.	.	.	.
.	.	.	.	.	.	4D/	-mi-	4G/	-mi-	.	.	.
=74	=74	=74	=74	=74	=74	=74	=74	=74	=74	=74	=74	=74
!	!	!	!	!	!	!LO:TX:t=P:problem:kreska pseudotaktowa	!	!	!	!	!	!
1.GG	.	1%3r	.	1%3r	.	1.GG	-na	1G	-na	1%3ryy	.	.
.	.	.	.	.	.	.	.	2r	.	.	.	.
!LO:TX:t=P:problem:kreska pseudotaktowa	!	!	!	!	!	!	!	!	!	!	!	!
1.G	#	.	.	.	.	2.G\	iun-	2.B\	iun-	.	.	.
.	.	.	.	.	.	4F\	-gi-	4A\	-gi-	.	.	.
.	.	.	.	.	.	2G\	-te	2B\	-te	.	.	.
=75	=75	=75	=75	=75	=75	=75	=75	=75	=75	=75	=75	=75
1.E	6	1%3r	.	1%3r	.	2.E\	gau-	2.c\	gau-	1%3ryy	.	.
.	.	.	.	.	.	4E\	-di-	4c\	-di-	.	.	.
!	!	!	!	!	!	!LO:TX:t=P:problem:kreska pseudotaktowa	!	!	!	!	!	!
.	.	.	.	.	.	2E\	-a	2c\	-a	.	.	.
!LO:TX:t=P:problem:kreska pseudotaktowa	!	!	!	!	!	!	!	!	!	!	!	!
1.E	.	.	.	.	.	2.E\	jun-	2.G/	iun-	.	.	.
.	.	.	.	.	.	4D/	-gi-	4F/	-gi-	.	.	.
!	!	!	!	!	!	!LO:TX:t=P:problem:kreska pseudotaktowa	!	!	!	!	!	!
.	.	.	.	.	.	2E\	-te	2G/	-te	.	.	.
=76	=76	=76	=76	=76	=76	=76	=76	=76	=76	=76	=76	=76
1.F	.	1%3r	.	1%3r	.	2.F\	ju-	2.A/	ju-	1%3ryy	.	.
.	.	.	.	.	.	4F\	-bi-	4A/	-bi-	.	.	.
.	.	.	.	.	.	2F\	-la	2A/	-la	.	.	.
!LO:TX:t=P:problem:kreska pseudotaktowa	!	!	!	!	!	!	!	!	!	!	!	!
1.AA	6	.	.	.	.	2.AA/	jun-	2.c\	jun-	.	.	.
.	.	.	.	.	.	4AA/	-gi-	4B\	-gi-	.	.	.
!	!	!	!	!	!	!	!	!LO:SIC:v:t=custos D	!	!	!	!
.	.	.	.	.	.	2AA/	-te	2A/	-te	.	.	.
!	!	!	!	!	!	!	!	!LO:LB:g=original	!	!	!	!
=77	=77	=77	=77	=77	=77	=77	=77	=77	=77	=77	=77	=77
1.BB-X	.	1%3r	.	1%3r	.	2.BB-X/	jun-	4D/	can-	1%3ryy	.	.
.	.	.	.	.	.	.	.	4E/	.	.	.	.
.	.	.	.	.	.	.	.	4F/	.	.	.	.
.	.	.	.	.	.	4BB-/	-gi-	4G/	.	.	.	.
.	.	.	.	.	.	2BB-/	-te	4A/	.	.	.	.
.	.	.	.	.	.	.	.	4B/	.	.	.	.
!	!	!	!	!	!	!LO:LB:g=original	!	!	!	!	!	!
2AA/	6	.	.	.	.	(4AA/	can-	4c\	.	.	.	.
.	.	.	.	.	.	4BB-/)	.	4d\	.	.	.	.
!LO:TX:t=P:problem:kreska pseudotaktowa	!	!	!	!	!	!	!	!	!	!	!	!
1C	4:3	.	.	.	.	2.C/	.	2.G/	.	.	.	.
.	.	.	.	.	.	4C/	-ti-	4G/	-ti-	.	.	.
=78	=78	=78	=78	=78	=78	=78	=78	=78	=78	=78	=78	=78
1.FF	.	1%3r	.	1%3r	.	1FF	-ca	1F	-ca	1%3ryy	.	.
.	.	.	.	.	.	2r	.	2r	.	.	.	.
*col	*	*	*	*	*	*	*	*	*	*	*	*
1EE	6	.	.	.	.	2.EE/	iun-	2.G/	jun-	.	.	.
.	.	.	.	.	.	4EE/	-gi-	4G/	-gi-	.	.	.
[2FF/	.	.	.	.	.	[2FF/	-te	[2A\	-te	.	.	.
=79	=79	=79	=79	=79	=79	=79	=79	=79	=79	=79	=79	=79
2FF/]	.	1.r	.	1%3r	.	2FF/]	.	2A\]	.	1%3ryy	.	.
1GG	4:3	.	.	.	.	2.GG/	can-	2.D/	can-	.	.	.
.	.	.	.	.	.	4GG/	-ti-	4C/	-ti-	.	.	.
*Xcol	*	*	*	*	*	*	*	*	*	*	*	*
!LO:TX:b:i:t=Sinfoni.	!	!	!	!	!	!	!	!	!	!	!	!
!LO:TX:t=P:problem:kreska pseudotaktowa	!	!	!	!	!	!	!	!	!	!	!	!
1.C	.	4ee\	.	.	.	1C	-ca	1.C	-ca	.	.	.
.	.	4ff\	.	.	.	.	.	.	.	.	.	.
.	.	4gg\	.	.	.	.	.	.	.	.	.	.
.	.	4cc\	.	.	.	.	.	.	.	.	.	.
!	!	!LO:TX:a:t=P:problem:♭ above	!	!	!	!	!	!	!	!	!	!
.	.	4b-X/	.	.	.	2r	.	.	.	.	.	.
.	.	4cc\	.	.	.	.	.	.	.	.	.	.
=80	=80	=80	=80	=80	=80	=80	=80	=80	=80	=80	=80	=80
1.FF	.	2a/	.	4aa\	.	1%3r	.	1%3r	.	1%3ryy	.	.
.	.	.	.	4bb-X\	.	.	.	.	.	.	.	.
.	.	2.a/	.	4ccc\	.	.	.	.	.	.	.	.
.	.	.	.	4ff\	.	.	.	.	.	.	.	.
.	.	.	.	4gg\	.	.	.	.	.	.	.	.
.	.	4b,/	.	4ff,\	.	.	.	.	.	.	.	.
1.C,	.	4cc\	.	4ee\	.	.	.	.	.	.	.	.
.	.	4b/	.	4dd\	.	.	.	.	.	.	.	.
.	.	4cc\	.	4ee\	.	.	.	.	.	.	.	.
.	.	4dd\	.	4ff\	.	.	.	.	.	.	.	.
.	.	4ee\	.	4gg\	.	.	.	.	.	.	.	.
.	.	4ff,\	.	4aa\	.	.	.	.	.	.	.	.
=81	=81	=81	=81	=81	=81	=81	=81	=81	=81	=81	=81	=81
1GG	.	2gg\	.	2bb-X\	.	1%3r	.	1%3r	.	1%3ryy	.	.
.	.	4g/	.	4b-X/	.	.	.	.	.	.	.	.
.	.	4a/	.	4cc\	.	.	.	.	.	.	.	.
!LO:TX:t=P:problem:kreska pseudotaktowa	!	!LO:SIC:v:s=4b-/	!	!	!	!	!	!	!	!	!	!
2G\	.	4b/	.	4dd\	.	.	.	.	.	.	.	.
!	!	!	!	!LO:SIC:v:t=custos ff	!	!	!	!	!	!	!	!
.	.	4cc,\	.	4ee\	.	.	.	.	.	.	.	.
!LO:SIC:v:t=custos AA	!	!	!	!	!	!	!	!	!	!	!	!
!	!	!	!	!LO:LB:g=original	!	!	!	!	!	!	!	!
1.D	-	4dd\	.	4ff\	.	.	.	.	.	.	.	.
.	.	4cc\	.	4ee\	.	.	.	.	.	.	.	.
.	.	4dd\	.	4ff\	.	.	.	.	.	.	.	.
.	.	4ee\	.	4gg\	.	.	.	.	.	.	.	.
.	.	4ff\	.	4aa\	.	.	.	.	.	.	.	.
!	!	!LO:SIC:v:t=custos aa	!	!	!	!	!	!	!	!	!	!
.	.	4gg\	.	4bb-,\	.	.	.	.	.	.	.	.
!LO:LB:g=original	!	!LO:LB:g=original	!	!	!	!	!	!	!	!	!	!
=82	=82	=82	=82	=82	=82	=82	=82	=82	=82	=82	=82	=82
1.AA	6	4aa\	.	4ccc\	.	1%3r	.	1%3r	.	1%3ryy	.	.
.	.	4ff\	.	4aa\	.	.	.	.	.	.	.	.
.	.	4aa\	.	4ccc\	.	.	.	.	.	.	.	.
.	.	4gg\	.	4bb-X\	.	.	.	.	.	.	.	.
.	.	4ff\	.	4aa\	.	.	.	.	.	.	.	.
.	.	4ee,\	.	4gg,\	.	.	.	.	.	.	.	.
!LO:TX:t=P:problem:kreska pseudotaktowa	!	!	!	!	!	!	!	!	!	!	!	!
[>1.BB-X	# 5	4dd\	.	4ff\	.	.	.	.	.	.	.	.
.	.	4b-X/	.	4dd\	.	.	.	.	.	.	.	.
.	.	4dd\	.	4ff\	.	.	.	.	.	.	.	.
.	.	4cc\	.	4ee\	.	.	.	.	.	.	.	.
.	.	4b-X/	.	4dd\	.	.	.	.	.	.	.	.
.	.	4a,/	.	4cc,\	.	.	.	.	.	.	.	.
=83	=83	=83	=83	=83	=83	=83	=83	=83	=83	=83	=83	=83
1.BB-]	6	4b-X/	.	4dd\	.	1%3r	.	1%3r	.	1%3ryy	.	.
.	.	4g/	.	4b-X/	.	.	.	.	.	.	.	.
.	.	4b-X/	.	4dd\	.	.	.	.	.	.	.	.
.	.	4a/	.	4cc\	.	.	.	.	.	.	.	.
.	.	4g/	.	4b-/	.	.	.	.	.	.	.	.
.	.	4f,/	.	4a,/	.	.	.	.	.	.	.	.
2.C/	.	2e/	.	2g/	.	.	.	.	.	.	.	.
.	.	4f/	.	4a/	.	.	.	.	.	.	.	.
4BB-X/	.	4g/	.	4b-/	.	.	.	.	.	.	.	.
!LO:TX:t=P:problem:kreska pseudotaktowa	!	!	!	!	!	!	!	!	!	!	!	!
2AA/	.	2a,/	.	2cc,\	.	.	.	.	.	.	.	.
=84	=84	=84	=84	=84	=84	=84	=84	=84	=84	=84	=84	=84
2BB-X/	.	2f/	.	2dd\	.	1%3r	.	1%3r	.	1%3ryy	.	.
1C	4:3	2.f/	.	2.g/	.	.	.	.	.	.	.	.
.	.	4e,/	.	4g,/	.	.	.	.	.	.	.	.
!LO:TX:t=P:problem:kreska pseudotaktowa	!	!	!	!	!	!	!	!	!	!	!	!
1.FF	.	4a/	.	2f/	.	.	.	.	.	.	.	.
.	.	4b-X/	.	.	.	.	.	.	.	.	.	.
.	.	4cc\	.	2r	.	.	.	.	.	.	.	.
.	.	4f/	.	.	.	.	.	.	.	.	.	.
.	.	4g/	.	2r,	.	.	.	.	.	.	.	.
.	.	4f,/	.	.	.	.	.	.	.	.	.	.
=85	=85	=85	=85	=85	=85	=85	=85	=85	=85	=85	=85	=85
1.C	.	2e/	.	4ee\	.	1%3r	.	1%3r	.	1%3ryy	.	.
.	.	.	.	4ff\	.	.	.	.	.	.	.	.
.	.	2.ee\	.	4gg\	.	.	.	.	.	.	.	.
.	.	.	.	4cc\	.	.	.	.	.	.	.	.
.	.	.	.	4dd\	.	.	.	.	.	.	.	.
.	.	4ee,\	.	4cc\	.	.	.	.	.	.	.	.
1G	.	1dd	.	4b/	.	.	.	.	.	.	.	.
.	.	.	.	4cc\	.	.	.	.	.	.	.	.
.	.	.	.	4dd\	.	.	.	.	.	.	.	.
.	.	.	.	4g/	.	.	.	.	.	.	.	.
!LO:TX:t=P:problem:kreska pseudotaktowa	!	!	!	!	!	!	!	!	!	!	!	!
2F\	.	2dd\	.	4a/	.	.	.	.	.	.	.	.
!	!	!	!	!LO:SIC:v:t=custos cc	!	!	!	!	!	!	!	!
.	.	.	.	4b/	.	.	.	.	.	.	.	.
!	!	!	!	!LO:LB:g=original	!	!	!	!	!	!	!	!
=86	=86	=86	=86	=86	=86	=86	=86	=86	=86	=86	=86	=86
2E\	.	2ee\	.	2cc\	.	1%3r	.	1%3r	.	1%3ryy	.	.
2F\	.	2.dd\	.	2.cc\	.	.	.	.	.	.	.	.
2G\	.	.	.	.	.	.	.	.	.	.	.	.
.	.	4dd\	.	4b\	.	.	.	.	.	.	.	.
!	!	!LO:SIC:v:t=custos cc	!	!	!	!	!	!	!	!	!	!
1.C	.	1.ee	.	1.cc	.	.	.	.	.	.	.	.
!	!	!LO:LB:g=original	!	!	!	!	!	!	!	!LO:LB:g=original	!	!
=87||	=87||	=87||	=87||	=87||	=87||	=87||	=87||	=87||	=87||	=87||	=87||	=87||
*M2/1	*	*M2/1	*	*M2/1	*	*M2/1	*	*M2/1	*	*M2/1	*	*
*met(c)	*	*met(c)	*	*met(c|)	*	*met(c)	*	*met(c|)	*	*met(c)	*	*
!LO:TX:b:i:t=Tutti&colon;	!	!	!	!	!	!	!	!	!	!	!	!
!LO:TX:a:B:t=adag	!	!	!	!	!	!	!	!	!	!	!	!
2r	.	2r	.	2r	.	2r	.	2r	.	2r	.	.
!	!	!	!	!	!	!	!	!LO:SIC:v:t=custos c	!	!	!	!
2C/	.	2cc\	.	2gg\	.	2C/	O	2c\	O	2e\	O	.
!	!	!	!	!	!	!	!	!LO:LB:g=original	!	!	!	!
1GG	4:3	1dd	.	1gg	.	2GG/	Je-	2c\	Je-	2d\	Je-	.
!	!	!	!	!	!	!	!	!	!	!LO:TX:t=P:problem:kreska pseudotaktowa	!	!
.	.	.	.	.	.	2GG/	-su	2B\	-su	2d\	-su	.
=88	=88	=88	=88	=88	=88	=88	=88	=88	=88	=88	=88	=88
4r	.	4r	.	4r	.	4r	.	4r	.	4r	.	.
4G\	.	4dd\	.	4gg\	.	4G\	o	4B\	o	4d\	ô	.
2G,\	6 #4 2	2cc#X\	.	1aa	.	4G\	Je-	4c#X\	Je-	4e\	Je-	.
.	.	.	.	.	.	4G\	-sŭ	4c#\	-su	4e\	-su	.
2F\	6	2a/	.	.	.	4.F\	sa-	4.d\	sa-	4.f\	sa-	.
.	.	.	.	.	.	8F\	-lus	8d\	-lus	8f\	-lus	.
!LO:SIC:v:t=custos D	!	!	!	!	!	!	!	!	!	!	!	!
2E\	7:6|	4b/	.	4.gg\	.	2E\	me-	4.d\	me-	2g\	me-	.
.	.	4g/	.	.	.	.	.	.	.	.	.	.
.	.	.	.	8aa,\	.	.	.	(8c#X\	a	.	.	.
!LO:LB:g=original	!	!	!	!	!	!	!	!	!	!	!	!
=89	=89	=89	=89	=89	=89	=89	=89	=89	=89	=89	=89	=89
2D/	-6:5	2dd\	.	8bb-X\L	.	2D/	-a	2d\)	.	2f\	-a	.
.	.	.	.	8aa\J	.	.	.	.	.	.	.	.
.	.	.	.	4aa\	.	.	.	.	.	.	.	.
4r	.	4r	.	4r	.	4r	.	4r	.	4f\	ô	.
!	!	!	!	!	!	!LO:SIC:v:t=custos GG	!	!	!	!	!	!
4D/	.	4dd\	.	4aa\	.	4D/	ô	4d\	ò	4.f\	Je-	.
!	!	!	!	!	!	!LO:LB:g=original	!	!	!	!	!	!
2GG/	7 5 #3	2dd\	.	2gg\	.	4.GG/	Je-	4.B\	Je-	.	.	.
.	.	.	.	.	.	.	.	.	.	8e\	-su	.
.	.	.	.	.	.	.	.	.	.	2e\	sa-	.
.	.	.	.	.	.	8GG/	-su	8B\	-su	.	.	.
4AA/	.	4cc\	.	2dd\	.	4AA/	sa-	4.c\	sa-	.	.	.
!LO:TX:t=P:problem:kreska pseudotaktowa	!	!	!	!	!	!	!	!	!	!	!	!
4FF/	.	4ff\	.	.	.	4FF/	-lus	.	.	4a\	-lus	.
.	.	.	.	.	.	.	.	8c\	-lus	.	.	.
=90	=90	=90	=90	=90	=90	=90	=90	=90	=90	=90	=90	=90
1GG	# 3:4:3	4r	.	4r	.	1GG	me-	4B\	me-	1d	me-	.
.	.	2dd\	.	2gg\	.	.	.	2c\	.	.	.	.
.	.	4dd\	.	4gg\	.	.	.	(4B\	-a	.	.	.
1C	.	1cc	.	1gg	.	1C	-a	1c)	.	1e	-a	.
!	!	!	!	!	!	!	!	!LO:LB:g=original	!	!	!	!
=91||	=91||	=91||	=91||	=91||	=91||	=91||	=91||	=91||	=91||	=91||	=91||	=91||
*M3/2	*	*M3/2	*	*M3/2	*	*M3/2	*	*M3/2	*	*M3/2	*	*
!	!	!LO:TX:a:t=3.	!	!LO:TX:a:t=3.	!	!	!	!	!	!	!	!
2C/	.	1%3r	.	1%3r	.	1%3r	.	2r	.	2r	.	.
1E,	6	.	.	.	.	.	.	2c\	Quan-	2e\	Quan-	.
.	.	.	.	.	.	.	.	2e\	-do	2g\	-do	.
1F	.	.	.	.	.	.	.	2A/	quan-	2c/	qua(n)-	.
.	.	.	.	.	.	.	.	2B\	-do	2d\	-do	.
!	!	!	!	!	!	!	!	!	!	!LO:SIC:v:t=custos e	!	!
2E,\	6	.	.	.	.	.	.	2c\	a-	2e\	a-	.
!	!	!	!	!	!	!	!	!	!	!LO:LB:g=original	!	!
=92	=92	=92	=92	=92	=92	=92	=92	=92	=92	=92	=92	=92
!	!	!	!	!LO:TX:b:i:t=Verte&colon; Cito.	!	!	!	!	!	!	!	!
!	!	!LO:SIC:v:t=custos cc	!	!LO:SIC:v:t=custos ee	!	!	!	!	!	!	!	!
2F\	.	1.r	.	1.r	.	1%3r	.	2c\	-ma-	2e\	-ma-	.
2G\	.	.	.	.	.	.	.	(2B\	-bo	(2d\	-bo	.
!LO:TX:t=P:problem:kreska pseudotaktowa	!	!	!	!	!	!	!	!	!	!	!	!
2GG/	.	.	.	.	.	.	.	2c\)	.	2e\)	.	.
!	!	!	!	!LO:LB:g=original	!	!	!	!	!	!	!	!
!	!	!LO:LB:g=original	!	!	!	!	!	!	!	!	!	!
2C/	.	2r	.	2r	.	.	.	1c	te	1c	te	.
1E,	6	2cc\	.	2ee\	.	.	.	.	.	.	.	.
.	.	2ee,\	.	2gg,\	.	.	.	2r	.	2r	.	.
=93	=93	=93	=93	=93	=93	=93	=93	=93	=93	=93	=93	=93
1F	.	2a/	.	2cc\	.	1%3r	.	1%3r	.	1%3r	.	.
.	.	2b/	.	2dd\	.	.	.	.	.	.	.	.
2E,\	6	2cc,\	.	2ee,\	.	.	.	.	.	.	.	.
2F\	.	1cc	.	2ee\	.	.	.	.	.	.	.	.
!LO:TX:t=P:problem:kreska pseudotaktowa	!	!	!	!	!	!	!	!	!	!	!	!
1G	4:3	.	.	2dd\	.	.	.	.	.	.	.	.
.	.	2b/	.	2ee,\	.	.	.	.	.	.	.	.
=94	=94	=94	=94	=94	=94	=94	=94	=94	=94	=94	=94	=94
1.C	.	1cc	.	2cc\	.	2r	.	1%3r	.	1%3r	.	.
.	.	.	.	2ee\	.	2C/	Me-	.	.	.	.	.
.	.	2cc\	.	2ee,\	.	2C/	-a	.	.	.	.	.
2D/	6	1b-X	.	2ff\	.	2D/	spes	.	.	.	.	.
!LO:TX:t=P:problem:kreska pseudotaktowa	!	!	!	!	!	!	!	!	!	!	!	!
1E	-6	.	.	2.gg\	.	2.E\	vi-	.	.	.	.	.
.	.	2b-/	.	.	.	.	.	.	.	.	.	.
.	.	.	.	4gg\	.	4E\	-ta	.	.	.	.	.
=95	=95	=95	=95	=95	=95	=95	=95	=95	=95	=95	=95	=95
[1.F,	.	1.a	.	1.aa	.	1.F	me-	2r	.	2r	.	.
.	.	.	.	.	.	.	.	2A/	me-	2c/	me-	.
.	.	.	.	.	.	.	.	2A/	-a	2c/	-a	.
!	!	!LO:TX:a:t=4	!	!LO:TX:a:t=4	!	!	!	!	!	!	!	!
!	!	!	!	!	!	!	!	!	!	!	!	!
2F\]	6 #4 2	1.r	.	1.r	.	2F\	-a	2B\	spes	2d\	spes	.
1E,	6	.	.	.	.	2.E\	vi-	2.c#X\	vi-	2.e\	vi-	.
!	!	!	!	!	!	!	!	!LO:TX:t=P:problem:kreska pseudotaktowa	!	!	!	!
.	.	.	.	.	.	4E\	-ta	4c#\	-ta	4e\	-ta	.
=96	=96	=96	=96	=96	=96	=96	=96	=96	=96	=96	=96	=96
1D	-	1%3r	.	1%3r	.	2D/	me-	2d\	me-	2f\	me-	.
!	!	!	!	!	!	!	!	!LO:SIC:v:t=custos d	!	!	!	!
.	.	.	.	.	.	2D/	-a	2d\	-a	2f\	-a	.
!LO:SIC:v:t=custos C	!	!	!	!	!	!	!	!	!	!	!	!
!	!	!	!	!	!	!	!	!LO:LB:g=original	!	!	!	!
2BB/	6	.	.	.	.	4BB/	me-	4d\	me-	4g\	me-	.
!	!	!	!	!	!	!LO:TX:t=P:problem:kreska pseudotaktowa	!	!LO:TX:t=P:problem:kreska pseudotaktowa	!	!	!	!
.	.	.	.	.	.	4BB/	-a	4e\	-a	4f\	-a	.
!LO:LB:g=original	!	!	!	!	!	!	!	!	!	!	!	!
2C/	.	.	.	.	.	2C/	spes	2c\	spes	2e\	spes	.
2D/	.	.	.	.	.	2D/	vi-	2c\	vi-	2f#X\	vi-	.
2E,\	.	.	.	.	.	2E\	-ta	2B\	-ta	2g\	-ta	.
=97	=97	=97	=97	=97	=97	=97	=97	=97	=97	=97	=97	=97
2C/	.	1.r	.	1.r	.	(2C/	me-	(2B\	me-	1g	me-	.
!LO:TX:t=P:problem:kreska pseudotaktowa	!	!	!	!	!	!	!	!	!	!	!	!
1D	4:3	.	.	.	.	1D)	.	1A)	.	.	.	.
.	.	.	.	.	.	.	.	.	.	(2f#X\	-a	.
2GG/	.	2r	.	2r	.	1.GG	-a	1G	-a	1g)	.	.
1BB,	6	2g/	.	2b/	.	.	.	.	.	.	.	.
.	.	2b,/	.	2dd,\	.	.	.	2r	.	2r	.	.
!	!	!	!	!	!	!LO:LB:g=original	!	!	!	!	!	!
=98	=98	=98	=98	=98	=98	=98	=98	=98	=98	=98	=98	=98
1C	.	2e/	.	2g/	.	1%3r	.	1%3r	.	1%3r	.	.
.	.	2f#X/	.	2a/	.	.	.	.	.	.	.	.
2BB,/	6	2g,/	.	2b,/	.	.	.	.	.	.	.	.
2C/	.	1g	.	2b/	.	.	.	.	.	.	.	.
!LO:TX:t=P:problem:kreska pseudotaktowa	!	!	!	!	!	!	!	!	!	!	!	!
1D	4:3	.	.	2a/	.	.	.	.	.	.	.	.
.	.	2f#X,/	.	2b,/	.	.	.	.	.	.	.	.
=99	=99	=99	=99	=99	=99	=99	=99	=99	=99	=99	=99	=99
1.GG	.	2g/	.	2g/	.	1.r	.	1%3r	.	1%3r	.	.
.	.	2b/	.	2dd\	.	.	.	.	.	.	.	.
.	.	2b,/	.	2dd,\	.	.	.	.	.	.	.	.
2GG/	6	2b/	.	2ee\	.	2r	.	.	.	.	.	.
!LO:TX:t=P:problem:kreska pseudotaktowa	!	!	!	!	!	!	!	!	!	!	!	!
1AA	# 6	2.cc#X\	.	2.ff#X\	.	2AA/	me-	.	.	.	.	.
.	.	.	.	.	.	2AA/	-a	.	.	.	.	.
.	.	4cc#,\	.	4ff#,\	.	.	.	.	.	.	.	.
=100	=100	=100	=100	=100	=100	=100	=100	=100	=100	=100	=100	=100
2BB/	.	2dd\	.	1gg	.	2BB/	spes	1%3r	.	1.r	.	.
!LO:TX:t=P:problem:kreska pseudotaktowa	!	!LO:SIC:v:t=custos ee	!	!	!	!	!	!	!	!	!	!
1C#X	6 -5	1ee	.	.	.	2.C#X/	vi-	.	.	.	.	.
.	.	.	.	2gg,\	.	.	.	.	.	.	.	.
.	.	.	.	.	.	4C#/	-ta	.	.	.	.	.
!	!	!	!	!LO:SIC:v:t=custos b	!	!	!	!	!	!	!	!
1.D	# 9:8	2ee\	.	1.ff#X	.	2D/	me-	.	.	2r	.	.
.	.	1dd	.	.	.	2D/	-a	.	.	2f#X\	quan-	.
!	!	!	!	!	!	!	!	!	!	!LO:SIC:v:t=custos d	!	!
.	.	.	.	.	.	2r	.	.	.	2a\	-do	.
!	!	!	!	!LO:LB:g=original	!	!	!	!	!	!LO:LB:g=original	!	!
=101	=101	=101	=101	=101	=101	=101	=101	=101	=101	=101	=101	=101
!LO:TX:t=P:problem:kreska pseudotaktowa	!	!LO:TX:a:t=3	!	!LO:TX:a:t=3.	!	!	!	!	!	!	!	!
1.BB	6	1%3r	.	1%3r	.	1%3r	.	2r	.	2d\	quan-	.
.	.	.	.	.	.	.	.	2B\	quan-	2d\	-do	.
!	!	!	!	!	!	!	!	!LO:TX:t=P:problem:kreska pseudotaktowa	!	!	!	!
.	.	.	.	.	.	.	.	2d\	-do	2d\	a-	.
1C	.	.	.	.	.	.	.	2G/	qua(n)-	2e\	-ma-	.
.	.	.	.	.	.	.	.	2A/	-do	2f#X\	-bo	.
2BB/	.	.	.	.	.	.	.	2B\	a-	2g\	a-	.
=102	=102	=102	=102	=102	=102	=102	=102	=102	=102	=102	=102	=102
2C/	.	1.r	.	1.r	.	1%3r	.	2B\	-ma-	1g	-ma-	.
!LO:TX:t=P:problem:kreska pseudotaktowa	!	!	!	!	!	!	!	!	!	!	!	!
1D	4:3	.	.	.	.	.	.	(2A/	-bo	.	.	.
.	.	.	.	.	.	.	.	2B\)	.	2f#X\	-bo	.
1GG	.	2r	.	2r	.	.	.	1G	te	1g	te	.
.	.	2g/	.	2b/	.	.	.	.	.	.	.	.
2G,\	.	2g,/	.	2b,/	.	.	.	2r	.	2r	.	.
=103	=103	=103	=103	=103	=103	=103	=103	=103	=103	=103	=103	=103
2F\	.	2a/	.	2cc\	.	1%3r	.	1.r	.	1.r	.	.
!LO:TX:t=P:problem:kreska pseudotaktowa	!	!	!	!	!	!	!	!	!	!	!	!
1D	# 6	2.b/	.	2.dd\	.	.	.	.	.	.	.	.
.	.	4b,/	.	4dd,\	.	.	.	.	.	.	.	.
!	!	!	!	!	!	!	!	!LO:LB:g=original	!	!	!	!
[1.C	.	1cc	.	1ee	.	.	.	2r	.	2r	.	.
.	.	.	.	.	.	.	.	2G/	me-	2e\	me-	.
!	!	!	!	!	!	!	!	!LO:TX:t=P:problem:kreska pseudotaktowa	!	!	!	!
.	.	2cc,\	.	2ee,\	.	.	.	2G/	-a	2e\	-a	.
=104	=104	=104	=104	=104	=104	=104	=104	=104	=104	=104	=104	=104
2C/]	6 #4 2	2a/	.	1dd	.	1.r	.	2A/	spes	2f#X\	spes	.
!LO:SIC:v:t=custos AA	!	!	!	!	!	!	!	!	!	!	!	!
1BB	6	1g#X,	.	.	.	.	.	2.B\	vi-	2.g#X\	vi-	.
.	.	.	.	2dd,\	.	.	.	.	.	.	.	.
.	.	.	.	.	.	.	.	4B\	-ta	4g#\	-ta	.
!LO:LB:g=original	!	!	!	!	!	!	!	!	!	!	!	!
1AA	.	1.cc,	.	2cc\	.	2r	.	2c\	me-	2a\	me-	.
.	.	.	.	2aa\	.	2AA/	me-	2c\	-a	2a\	-a	.
!LO:TX:t=P:problem:kreska pseudotaktowa	!	!	!	!	!	!	!	!	!	!	!	!
2AA/	-	.	.	2aa,\	.	2AA/	-a	4c\	me-	4a\	me-	.
.	.	.	.	.	.	.	.	4c\	-a	4b\	-a	.
=105	=105	=105	=105	=105	=105	=105	=105	=105	=105	=105	=105	=105
2BB/	.	2b/	.	2dd\	.	2BB/	spes	2d\	spes	2g\	spes	.
1C#X	6 -5	1a,	.	2gg\	.	2.C#X/	vi-	2.e\	vi-	2.g\	vi-	.
.	.	.	.	2ee\	.	.	.	.	.	.	.	.
!	!	!	!	!	!	!	!	!LO:TX:t=P:problem:kreska pseudotaktowa	!	!LO:SIC:v:t=custos f#	!	!
.	.	.	.	.	.	4C#/	-ta	4e\	-ta	4f#X\	-ta	.
!	!	!	!	!	!	!	!	!	!	!LO:LB:g=original	!	!
1D	#	1a	.	1dd	.	2D/	me-	2A/	me-	2f#X\	me-	.
.	.	.	.	.	.	2D/	-a	2A/	-a	2f#\	-a	.
!LO:TX:t=P:problem:kreska pseudotaktowa	!	!	!	!	!	!	!	!	!	!	!	!
2BB/	6	2b,/	.	2dd\	.	4BB/	me-	4d\	me-	4g\	me-	.
.	.	.	.	.	.	4BB/	-a	4d\	-a	4fn\	-a	.
=106	=106	=106	=106	=106	=106	=106	=106	=106	=106	=106	=106	=106
2C/	.	2g/	.	1ee	.	2C/	spes	2c\	spes	2e\	spes	.
1AA,	.	1a	.	.	.	2.AA/	vi-	2.e\	vi-	2.a\	vi-	.
.	.	.	.	2ee\	.	.	.	.	.	.	.	.
!	!	!	!	!	!	!LO:SIC:v:t=custos BB	!	!	!	!LO:TX:t=P:problem:kreska pseudotaktowa	!	!
.	.	.	.	.	.	4AA/	-ta	4e\	-ta	4b\	-ta	.
!LO:TX:t=P:problem:kreska pseudotaktowa	!	!	!	!	!	!	!	!	!	!	!	!
!	!	!	!	!	!	!LO:LB:g=original	!	!LO:LB:g=original	!	!	!	!
1.BB	4:3	2r	.	1.b	.	1.BB	me-	1e	me-	(2g\	me-	.
.	.	2r	.	.	.	.	.	.	.	1f#X)	.	.
!	!	!LO:TX:b:t=P:problem:# below	!	!	!	!	!	!	!	!	!	!
.	.	2f#X,/	.	.	.	.	.	(2d#X\	-a	.	.	.
=107	=107	=107	=107	=107	=107	=107	=107	=107	=107	=107	=107	=107
2E\	.	2g/	.	2b/	.	2E\	-a	2e\)	.	2e\	-a	.
1C#X,	.	1a,	.	2cc#X\	.	2.C#X/	vi-	2.e\	vi-	2.a\	me-	.
.	.	.	.	2ee\	.	.	.	.	.	.	.	.
.	.	.	.	.	.	4C#/	-ta	4e\	-ta	4g\	-a	.
!LO:TX:t=P:problem:kreska pseudotaktowa	!	!	!	!	!	!	!	!	!	!	!	!
1.D	#	2a/	.	1ff#X	.	2D/	me-	2d\	mne-	2.f#X\	spes	.
.	.	2d/	.	.	.	2.D/	-a	2.d\	-a	.	.	.
.	.	.	.	.	.	.	.	.	.	4g\	vi-	.
.	.	[2a/	.	2ff#\	.	.	.	.	.	2a\	-ta	.
.	.	.	.	.	.	4D\	spes	4c\	soes	.	.	.
=108	=108	=108	=108	=108	=108	=108	=108	=108	=108	=108	=108	=108
1.E	4:3	2a/]	.	1.ee	.	(2E\	me-	(2c\	me-	1a	me-	.
.	.	1e	.	.	.	1EE)	.	1B)	.	.	.	.
.	.	.	.	.	.	.	.	.	.	(2g#X\	-a	.
1.AA,	#	2e/	.	2cc#X\	.	1AA	-a	2A/	-a	2a\)	.	.
.	.	2r	.	2r	.	.	.	2c#X\	quan-	2r	.	.
!	!	!	!	!	!	!LO:TX:t=P:problem:kreska pseudotaktowa	!	!LO:TX:t=P:problem:kreska pseudotaktowa	!	!	!	!
.	.	2r	.	2r	.	2r	.	2e\	-do	2r	.	.
!	!	!	!	!	!	!	!	!	!	!	!	!
=109	=109	=109	=109	=109	=109	=109	=109	=109	=109	=109	=109	=109
!	!	!LO:TX:a:t=9.	!	!LO:TX:a:t=10.	!	!	!	!	!	!	!	!
1AA	.	1%3r	.	1%3r	.	2r	.	2A/	qua(n)-	1.r	.	.
.	.	.	.	.	.	2AA/	quan-	2A/	-do	.	.	.
!LO:TX:t=P:problem:kreska pseudotaktowa	!	!	!	!	!	!	!	!	!	!	!	!
2C#X/	.	.	.	.	.	2C#X/	-do	2r	.	.	.	.
1.FF#X	6	.	.	.	.	2FF#X/	quan-	2r	.	2r	.	.
.	.	.	.	.	.	2FF#/	-do	2d\	quan-	2f#X\	quan-	.
!	!	!	!	!	!	!	!	!LO:SIC:v:t=custos B	!	!	!	!
.	.	.	.	.	.	2r	.	2f#X\	-do	2a\	-do	.
!	!	!	!	!	!	!	!	!LO:LB:g=original	!	!	!	!
=110	=110	=110	=110	=110	=110	=110	=110	=110	=110	=110	=110	=110
1GG	.	1%3r	.	1%3r	.	1GG	quan-	2B\	quan-	2d\	quan-	.
.	.	.	.	.	.	.	.	2c#X\	-do	2e\	-do	.
!	!	!	!	!	!	!	!	!	!	!LO:TX:a:t=P:problem:# above	!	!
2FF#X,/	6	.	.	.	.	2FF#X/	-do	2d\	a-	2f#X\	a-	.
!	!	!	!	!	!	!	!	!	!	!LO:LB:g=original	!	!
2GG/	.	.	.	.	.	2GG/	a-	1d	-ma-	2f#X\	-ma-	.
1AA	4:3	.	.	.	.	2.AA/	-ma-	.	.	(2e\	-bo	.
.	.	.	.	.	.	.	.	2c#X\	-bo	2f#X\)	.	.
.	.	.	.	.	.	4AA/	-bo	.	.	.	.	.
=111	=111	=111	=111	=111	=111	=111	=111	=111	=111	=111	=111	=111
!LO:TX:t=P:problem:kreska pseudotaktowa	!	!	!	!	!	!	!	!	!	!	!	!
1.D	5:6 #	1%3r	.	1%3r	.	2D/	te	1d	te	2d\	te	.
.	.	.	.	.	.	2D/	me-	.	.	2f#X\	me-	.
!	!	!	!	!	!	!LO:SIC:v:t=custos E	!	!LO:TX:t=P:problem:kreska pseudotaktowa	!	!	!	!
.	.	.	.	.	.	2D/	-a	2r	.	2f#\	-a	.
!	!	!	!	!	!	!LO:LB:g=original	!	!	!	!	!	!
1.E,	.	.	.	.	.	1E	spes	2r	.	1g	spes	.
.	.	.	.	.	.	.	.	2.c#X\	vi-	.	.	.
.	.	.	.	.	.	2r	.	.	.	2r	.	.
.	.	.	.	.	.	.	.	4c#\	-ta	.	.	.
=112	=112	=112	=112	=112	=112	=112	=112	=112	=112	=112	=112	=112
1D	.	1%3r	.	1%3r	.	2r	.	2d\	me-	2r	.	.
.	.	.	.	.	.	2r	.	2d\	-a	2r	.	.
2G#X\	6	.	.	.	.	4G#X\	me-	4B\	me-	4e\	me-	.
.	.	.	.	.	.	4G#\	-a	4B\	-a	4d\	-a	.
!LO:SIC:v:t=custos D	!	!	!	!	!	!	!	!	!	!	!	!
1.A	-	.	.	.	.	2A\	spes	2B\	spes	2.c/	spes	.
.	.	.	.	.	.	2.AA/	vi-	2.A/	vi-	.	.	.
.	.	.	.	.	.	.	.	.	.	4d\	vi-	.
.	.	.	.	.	.	.	.	.	.	2e\	-ta	.
.	.	.	.	.	.	4AA/	-ta	4A/	-ta	.	.	.
!LO:LB:g=original	!	!	!	!	!	!	!	!	!	!	!	!
=113	=113	=113	=113	=113	=113	=113	=113	=113	=113	=113	=113	=113
!	!	!LO:SIC:v:t=custos cc	!	!	!	!	!	!	!	!	!	!
2D/	.	1.r	.	1%3r	.	(2D/	me-	1A	me-	(2c/	me-	.
1E	4:3	.	.	.	.	1E)	.	.	.	1B)	.	.
.	.	.	.	.	.	.	.	(2G#X/	a	.	.	.
!LO:TX:t=P:problem:kreska pseudotaktowa	!	!	!	!	!	!	!	!	!	!	!	!
!	!	!LO:LB:g=original	!	!	!	!	!	!	!	!	!	!
1.A	#	2r	.	.	.	1AA	-a	1A)	.	1A	-a	.
.	.	2cc#X\	.	.	.	.	.	.	.	.	.	.
.	.	2ee,\	.	.	.	2r	.	2r	.	2r	.	.
!	!	!	!	!	!	!	!	!LO:LB:g=original	!	!	!	!
=114	=114	=114	=114	=114	=114	=114	=114	=114	=114	=114	=114	=114
1.F#X	.	1a	.	2r	.	1%3r	.	1%3r	.	1%3r	.	.
.	.	.	.	2ff#X\	.	.	.	.	.	.	.	.
!	!	!	!	!LO:SIC:v:t=custos dd	!	!	!	!	!	!	!	!
.	.	2a,/	.	2aa\	.	.	.	.	.	.	.	.
!	!	!	!	!LO:LB:g=original	!	!	!	!	!	!	!	!
1G	.	2b/	.	2dd\	.	.	.	.	.	.	.	.
.	.	2cc#X\	.	2ee\	.	.	.	.	.	.	.	.
2F#X,\	.	2dd,\	.	2ff#X,\	.	.	.	.	.	.	.	.
=115	=115	=115	=115	=115	=115	=115	=115	=115	=115	=115	=115	=115
2G\	.	1dd	.	2ff#X\	.	1.r	.	1.r	.	2r	.	.
2A\	.	.	.	1ee,	.	.	.	.	.	2e\	me-	.
!LO:TX:t=P:problem:kreska pseudotaktowa	!	!	!	!	!	!	!	!	!	!	!	!
2AA/	.	2cc#X\	.	.	.	.	.	.	.	2e\	-a	.
2D/	.	1dd	.	1dd	.	2r	.	2r	.	1f#X	spes	.
1F#X,	6	.	.	.	.	2F#X\	vi-	2A/	vi-	.	.	.
.	.	2r	.	2r	.	2F#\	-ta	2A/	-ta	2r	.	.
=116	=116	=116	=116	=116	=116	=116	=116	=116	=116	=116	=116	=116
1.G	.	2r	.	2r	.	2G\	me-	2B\	me-	1.r	.	.
.	.	2b/	.	2dd\	.	2G\	-a	2B\	-a	.	.	.
!	!	!	!	!	!	!	!	!LO:TX:t=P:problem:kreska pseudotaktowa	!	!	!	!
.	.	2b,/	.	2dd,\	.	2r	.	2r	.	.	.	.
!LO:TX:t=P:problem:kreska pseudotaktowa	!	!	!	!	!	!	!	!	!	!	!	!
1.E	6	2cc\	.	2ee\	.	2r	.	2r	.	2r	.	.
.	.	2cc\	.	2gg\	.	2E\	me-	2c\	me-	2g\	me-	.
!	!	!	!	!	!	!LO:TX:t=P:problem:kreska pseudotaktowa	!	!	!	!	!	!
.	.	2cc,\	.	2gg,\	.	2E\	-a	2B\	-a	2g\	-a	.
!	!	!	!	!	!	!	!	!	!	!LO:LB:g=original	!	!
=117	=117	=117	=117	=117	=117	=117	=117	=117	=117	=117	=117	=117
1F	.	1cc	.	2ff\	.	2F\	spes	2A/	spes	2a\	spes	.
.	.	.	.	2aa\	.	2F\	vi-	2B\	vi-	2f\	vi-	.
2C/	.	2cc,\	.	2gg,\	.	2C/	-ta	2c\	-ta	2e\	-ta	.
2F\	.	2cc\	.	2aa\	.	(2F\	me-	1c	me-	(2e\	me-	.
2G\	.	1g	.	2.gg\	.	1G)	.	.	.	1d)	.	.
!LO:TX:t=P:problem:kreska pseudotaktowa	!	!	!	!	!	!	!	!	!	!	!	!
2GG/	.	.	.	.	.	.	.	(2B\	-a	.	.	.
.	.	.	.	4ff\	.	.	.	.	.	.	.	.
!	!	!	!	!	!	!LO:LB:g=original	!	!	!	!	!	!
=118	=118	=118	=118	=118	=118	=118	=118	=118	=118	=118	=118	=118
1.C	.	1g	.	1ee	.	1C	-a	2c\)	.	2c/	-a	.
.	.	.	.	.	.	.	.	2e\	me-	2g\	me-	.
.	.	2r	.	2r	.	2r	.	2e\	-a	2g\	-a	.
!LO:TX:t=P:problem:kreska pseudotaktowa	!	!	!	!	!	!	!	!	!	!	!	!
1.AA	.	2r	.	1.r	.	2r	.	1f	spes.	1a	spes	.
.	.	2cc\	.	.	.	2AA/	me-	.	.	.	.	.
!	!	!	!	!	!	!	!	!	!	!LO:TX:t=P:problem:kreska pseudotaktowa	!	!
.	.	2cc,\	.	.	.	2AA/	-a	2r	.	2r	.	.
!	!	!	!	!	!	!	!	!LO:LB:g=original	!	!	!	!
=119	=119	=119	=119	=119	=119	=119	=119	=119	=119	=119	=119	=119
2BB-X/	5	2dd\	.	1.r	.	2BB-X/	spes	2r	.	2r	.	.
!LO:N:acc=#	!	!	!	!	!	!LO:N:acc=#	!	!	!	!	!	!
1BBn,	6	2.dd\	.	.	.	2.BBn/	vi-	2.d\	vi-	2.g\	vi-	.
.	.	4dd,\	.	.	.	4BB/	-ta	4d\	-ta	4f\	-ta	.
1C	9	1ee	.	2r	.	2C/	me-	2d\	me-	2e\	me-	.
.	.	.	.	2.aa\	.	2C/	-a	2c\	-a	2e\	-a	.
!LO:TX:t=P:problem:kreska pseudotaktowa	!	!LO:SIC:v:t=custos dd	!	!	!	!	!	!	!	!	!	!
2C#X/	#	2ee\	.	.	.	4C#X/	me-	2r	.	2r	.	.
.	.	.	.	4gg,\	.	4C#/	-a	.	.	.	.	.
=120	=120	=120	=120	=120	=120	=120	=120	=120	=120	=120	=120	=120
2D/	.	2.dd\	.	2ff#X\	.	2D/	spes	1%3r	.	1%3r	.	.
2BB/	.	.	.	2gg\	.	2r	.	.	.	.	.	.
.	.	4dd\	.	.	.	.	.	.	.	.	.	.
2C/	.	4cc\	.	2gg,\	.	2r	.	.	.	.	.	.
.	.	4b/	.	.	.	.	.	.	.	.	.	.
!LO:SIC:v:t=custos GG	!	!	!	!	!	!	!	!	!	!	!	!
1.D	#	1a	.	1dd	.	2r	.	.	.	.	.	.
.	.	.	.	.	.	2.F#X\	vi-	.	.	.	.	.
.	.	2a/	.	2dd\	.	.	.	.	.	.	.	.
.	.	.	.	.	.	4F#\	-ta	.	.	.	.	.
!LO:LB:g=original	!	!	!	!	!	!	!	!	!	!	!	!
=121	=121	=121	=121	=121	=121	=121	=121	=121	=121	=121	=121	=121
1.GG	.	1b	.	1dd	.	2G\	me-	2r	.	2r	.	.
.	.	.	.	.	.	2G\	-a	2B\	me-	2d\	me-	.
!	!	!	!	!	!	!	!	!LO:TX:t=P:problem:kreska pseudotaktowa	!	!	!	!
.	.	2r	.	2r	.	2r	.	2B\	-a	2d\	-a	.
!	!	!LO:TX:a:t=3	!	!LO:TX:a:t=3	!	!LO:TX:a:t=3	!	!	!	!	!	!
2C/	.	1.r	.	1.r	.	1.r	.	2c\	spes	2e\	spes	.
!LO:TX:t=P:problem:kreska pseudotaktowa	!	!	!	!	!	!	!	!	!	!	!	!
1E	6	.	.	.	.	.	.	2c\	qua(n)-	2e\	qua(n)-	.
!	!	!	!	!	!	!	!	!	!	!LO:TX:t=P:problem:kreska pseudotaktowa	!	!
.	.	.	.	.	.	.	.	2e\	-do	2g\	-do	.
=122	=122	=122	=122	=122	=122	=122	=122	=122	=122	=122	=122	=122
1F	.	1%3r	.	1%3r	.	1%3r	.	2A/	qua(n)-	2c/	quan-	.
.	.	.	.	.	.	.	.	2B\	-do	2d\	-do	.
2E\	6	.	.	.	.	.	.	2c\	a-	2e\	a-	.
!	!	!	!	!	!	!	!	!	!	!LO:LB:g=original	!	!
2F\	.	.	.	.	.	.	.	1c	-ma-	2e\	-ma-	.
2G\	.	.	.	.	.	.	.	.	.	(2d\	-bo	.
!LO:TX:t=P:problem:kreska pseudotaktowa	!	!	!	!	!	!	!	!	!	!	!	!
2GG/	.	.	.	.	.	.	.	2B\	-bo	2e\)	.	.
=123	=123	=123	=123	=123	=123	=123	=123	=123	=123	=123	=123	=123
1.C	.	2r	.	2r	.	2r	.	1c	te	1c	te	.
.	.	2cc\	.	2ee\	.	2C/	me-	.	.	.	.	.
!	!	!	!	!LO:SIC:v:t=custos ff	!	!	!	!	!	!	!	!
.	.	2cc,\	.	2ee\	.	2C/	-a	2r	.	2r	.	.
!	!	!	!	!LO:LB:g=original	!	!	!	!LO:SIC:v:t=custos A	!	!	!	!
2D/	-6	1b-X	.	2ff\	.	2D/	spes	1.r	.	1.r	.	.
1E,	6	.	.	2.gg\	.	2.E\	vi-	.	.	.	.	.
.	.	2b-,/	.	.	.	.	.	.	.	.	.	.
.	.	.	.	4gg\	.	4E\	-ta	.	.	.	.	.
!	!	!	!	!	!	!LO:LB:g=original	!	!LO:LB:g=original	!	!	!	!
=124	=124	=124	=124	=124	=124	=124	=124	=124	=124	=124	=124	=124
!LO:TX:t=P:problem:kreska pseudotaktowa	!	!	!	!	!	!	!	!	!	!	!	!
[1.F	.	1.a	.	1.aa	.	1.F	me-	2r	.	2r	.	.
.	.	.	.	.	.	.	.	2A/	me-	2c/	me-	.
.	.	.	.	.	.	.	.	2A/	-a	2c/	-a	.
!	!	!LO:TX:a:t=4.	!	!LO:TX:a:t=4.	!	!	!	!	!	!	!	!
2F\]	6 # 2	1.r	.	1.r	.	2F\	-a	2B\	spes	2d\	spes	.
1E,	6	.	.	.	.	2.E\	vi-	2.c#X\	vi-	2.e\	vi-	.
!	!	!	!	!	!	!	!	!LO:TX:t=P:problem:kreska pseudotaktowa	!	!LO:TX:t=P:problem:kreska pseudotaktowa	!	!
.	.	.	.	.	.	4E\	-ta	4c#\	-ta	4e\	-ta	.
=125	=125	=125	=125	=125	=125	=125	=125	=125	=125	=125	=125	=125
1D	-	1%3r	.	1%3r	.	2D/	me-	2d\	me-	2f\	me-	.
.	.	.	.	.	.	2D/	-a	2d\	-a	2f\	-a	.
!LO:TX:t=P:problem:kreska pseudotaktowa	!	!	!	!	!	!	!	!	!	!	!	!
2BB/	6	.	.	.	.	4BB/	me-	4d\	me-	4g\	me-	.
!	!	!	!	!	!	!	!	!LO:TX:t=P:problem:kreska pseudotaktowa	!	!	!	!
.	.	.	.	.	.	4BB/	-a	4e\	-a	4f\	-a	.
2C/	.	.	.	.	.	2C/	spes	2c\	spes	2e\	spes	.
2D/	.	.	.	.	.	2D/	vi-	2c\	vi-	2f#X\	vi-	.
2E\	.	.	.	.	.	2E\	-ta	2B\	-ta	2g\	-ta	.
=126	=126	=126	=126	=126	=126	=126	=126	=126	=126	=126	=126	=126
2C/	.	1.r	.	1.r	.	(2C/	me-	(2B\	me-	(1g	me-	.
!LO:TX:t=P:problem:kreska pseudotaktowa	!	!	!	!	!	!	!	!	!	!	!	!
1D	4:3	.	.	.	.	1D)	.	1A)	.	.	.	.
.	.	.	.	.	.	.	.	.	.	2f#X\)	.	.
1.GG	.	2r	.	2r	.	1.GG	-a	1.G	-a	1g	-a	.
.	.	2g/	.	2b/	.	.	.	.	.	.	.	.
.	.	2b,/	.	2dd,\	.	.	.	.	.	2r	.	.
=127	=127	=127	=127	=127	=127	=127	=127	=127	=127	=127	=127	=127
1C	.	2e/	.	2g/	.	1%3r	.	1%3r	.	1%3r	.	.
.	.	2f#X/	.	2a/	.	.	.	.	.	.	.	.
2BB/	6	2g,/	.	2b,/	.	.	.	.	.	.	.	.
2C/	.	1g	.	2b/	.	.	.	.	.	.	.	.
!LO:TX:t=P:problem:kreska pseudotaktowa	!	!	!	!	!	!	!	!	!	!	!	!
1D	4:3	.	.	2a/	.	.	.	.	.	.	.	.
.	.	2f#X,/	.	2b,/	.	.	.	.	.	.	.	.
=128	=128	=128	=128	=128	=128	=128	=128	=128	=128	=128	=128	=128
1.GG,	.	2g/	.	2g/	.	1.r	.	1%3r	.	1%3r	.	.
.	.	2b/	.	2dd\	.	.	.	.	.	.	.	.
.	.	2b,/	.	2dd,\	.	.	.	.	.	.	.	.
!	!	!	!	!	!	!LO:LB:g=original	!	!	!	!	!	!
2GG/	6	2b/	.	2ee\	.	2r	.	.	.	.	.	.
1AA,	# 6	2.cc#X\	.	2.ff#X\	.	2AA/	me-	.	.	.	.	.
.	.	.	.	.	.	2AA/	-a	.	.	.	.	.
!	!	!LO:SIC:v:t=custos dd	!	!	!	!	!	!	!	!	!	!
.	.	4cc#\	.	4ff#,\	.	.	.	.	.	.	.	.
!	!	!LO:LB:g=original	!	!	!	!	!	!	!	!	!	!
=129	=129	=129	=129	=129	=129	=129	=129	=129	=129	=129	=129	=129
!	!	!	!	!	!	!	!	!LO:SIC:v:t=custos B	!	!	!	!
2BB/	6	2dd\	.	1gg	.	2BB/	spes	1%3r	.	1.r	.	.
!LO:SIC:v:t=custos D	!	!	!	!	!	!	!	!	!	!	!	!
1C#X	-6 5	[1ee	.	.	.	2.C#X/	vi-	.	.	.	.	.
.	.	.	.	2gg\	.	.	.	.	.	.	.	.
.	.	.	.	.	.	4C#/	-ta	.	.	.	.	.
!LO:LB:g=original	!	!	!	!	!	!	!	!	!	!	!	!
1.D	#	2ee\]	.	1ff#X	.	2D/	me-	.	.	2r	.	.
.	.	1dd	.	.	.	2D/	-a	.	.	2f#X\	qŭan-	.
.	.	.	.	2r	.	2r	.	.	.	2a\	-do	.
!	!	!	!	!	!	!	!	!LO:LB:g=original	!	!LO:LB:g=original	!	!
=130	=130	=130	=130	=130	=130	=130	=130	=130	=130	=130	=130	=130
!	!	!LO:TX:a:t=3.	!	!LO:TX:a:t=3.	!	!	!	!	!	!	!	!
1.BB,	6	1%3r	.	1%3r	.	1%3r	.	2r	.	2d\	qua(n)-	.
.	.	.	.	.	.	.	.	2B\	quan-	2d\	-do	.
.	.	.	.	.	.	.	.	2d\	-do	2d\	a-	.
1C	.	.	.	.	.	.	.	2G/	qua(n)-	2e\	-ma-	.
.	.	.	.	.	.	.	.	2A/	-do	2f#X\	-bo	.
!LO:TX:t=P:problem:kreska pseudotaktowa	!	!	!	!	!	!	!	!	!	!	!	!
2BB/	.	.	.	.	.	.	.	2B\	a-	2g\	a-	.
=131	=131	=131	=131	=131	=131	=131	=131	=131	=131	=131	=131	=131
2C/	.	1.r	.	1.r	.	1%3r	.	2B\	-ma-	1g	-ma-	.
1D,	.	.	.	.	.	.	.	(2.A\	-bo	.	.	.
.	.	.	.	.	.	.	.	.	.	2f#X\	-bo	.
.	.	.	.	.	.	.	.	4B\)	.	.	.	.
1GG	.	2r	.	2r	.	.	.	1G	te	1g	te	.
.	.	2g/	.	2b/	.	.	.	.	.	.	.	.
!LO:TX:t=P:problem:kreska pseudotaktowa	!	!	!	!	!	!	!	!	!	!	!	!
2G\	.	2g,/	.	2b,/	.	.	.	2r	.	2r	.	.
=132	=132	=132	=132	=132	=132	=132	=132	=132	=132	=132	=132	=132
2F\	.	2a/	.	2cc\	.	1%3r	.	1.r	.	1.r	.	.
1D,	# 6	2.b/	.	2.dd\	.	.	.	.	.	.	.	.
.	.	4b,/	.	4dd\	.	.	.	.	.	.	.	.
[1.C	.	1cc	.	1ee	.	.	.	2r	.	2r	.	.
.	.	.	.	.	.	.	.	2G/	me-	2e\	me-	.
.	.	2cc,\	.	2ee\	.	.	.	2G/	-a	2e\	-a	.
=133	=133	=133	=133	=133	=133	=133	=133	=133	=133	=133	=133	=133
2C/]	# 6	2a/	.	1dd	.	1.r	.	2A/	spes	2f#X\	spes	.
!LO:TX:t=P:problem:kreska pseudotaktowa	!	!	!	!	!	!	!	!	!	!	!	!
1BB	.	1g#X,	.	.	.	.	.	2.B\	vi-	2.g#X\	vi-	.
!	!	!	!	!LO:SIC:v:t=custos cc	!	!	!	!	!	!	!	!
.	.	.	.	2dd\	.	.	.	.	.	.	.	.
.	.	.	.	.	.	.	.	4B\	-ta	4g#\	-ta	.
!	!	!	!	!LO:LB:g=original	!	!	!	!	!	!	!	!
1AA	-	1.cc,	.	2cc\	.	2r	.	2c\	me-	2a\	me-	.
.	.	.	.	2aa\	.	2AA/	me-	2c\	-a	2a\	-a	.
2AA,/	.	.	.	2aa,\	.	2AA/	-a	4c\	me-	4a\	me-	.
!	!	!	!	!	!	!	!	!LO:SIC:v:t=custos d	!	!	!	!
.	.	.	.	.	.	.	.	4c\	-a	4b\	-a	.
!	!	!	!	!	!	!	!	!LO:LB:g=original	!	!	!	!
=134	=134	=134	=134	=134	=134	=134	=134	=134	=134	=134	=134	=134
2BB/	.	2b/	.	2dd\	.	2BB/	spes	2d\	spes	2g\	spes	.
!LO:TX:t=P:problem:kreska pseudotaktowa	!	!	!	!	!	!	!	!	!	!	!	!
1C#X	.	1a,	.	2gg\	.	2.C#X/	vi-	2.e\	vi-	2.g\	vi-	.
.	.	.	.	2ee,\	.	.	.	.	.	.	.	.
!	!	!	!	!	!	!	!	!	!	!LO:SIC:v:t=custos f#	!	!
.	.	.	.	.	.	4C#/	-ta	4e\	-ta	4f#X\	-ta	.
!	!	!	!	!	!	!	!	!	!	!LO:LB:g=original	!	!
1D	.	1a	.	1dd	.	2D/	me-	2A/	me-	2f#X\	me-	.
.	.	.	.	.	.	2D/	-a	2A/	-a	2f#\	-a	.
2BB,/	6	2b,/	.	2dd\	.	4BB/	me-	4d\	me-	4g\	me-	.
.	.	.	.	.	.	4BB/	-a	4d\	-a	4fn\	-a	.
=135	=135	=135	=135	=135	=135	=135	=135	=135	=135	=135	=135	=135
2C/	.	2g/	.	1ee	.	2C/	spes	2c\	spes	2e\	spes	.
!LO:TX:t=P:problem:kreska pseudotaktowa	!	!	!	!	!	!	!	!	!	!	!	!
1AA	.	1a,	.	.	.	2.AA/	vi-	2.e\	vi-	2.a\	vi-	.
.	.	.	.	2ee\	.	.	.	.	.	.	.	.
!	!	!	!	!	!	!	!	!LO:TX:t=P:problem:kreska pseudotaktowa	!	!	!	!
.	.	.	.	.	.	4AA/	-ta	4e\	-ta	4b\	-ta	.
!	!	!	!	!	!	!LO:TX:t=P:problem:kreska pseudotaktowa	!	!	!	!	!	!
1.BB	4:3	2r	.	1.b	.	1.BB	me-	1e	me-	(2g\	me-	.
.	.	2r	.	.	.	.	.	.	.	1f#X)	.	.
.	.	2f#X,/	.	.	.	.	.	(2d#X\	-a	.	.	.
=136	=136	=136	=136	=136	=136	=136	=136	=136	=136	=136	=136	=136
2E\	.	2g/	.	2b/	.	2E\	-a	2e\)	.	2e\	-a	.
!LO:TX:t=P:problem:kreska pseudotaktowa	!	!	!	!	!	!	!	!	!	!	!	!
1C#X	6	1a,	.	2cc#X\	.	2.C#X/	vi-	2.e\	vi-	2.a\	me-	.
.	.	.	.	2ee\	.	.	.	.	.	.	.	.
.	.	.	.	.	.	4C#/	-ta	4e\	-ta	4g\	-a	.
1.D,	#	2a/	.	1ff#X	.	2D/	me-	2d\	me-	2.f#X\	spes	.
.	.	2d/	.	.	.	2.D/	-a	2.d\	-a	.	.	.
.	.	.	.	.	.	.	.	.	.	4g\	vi-	.
!	!	!LO:SIC:v:t=custos a	!	!	!	!	!	!	!	!	!	!
.	.	[2a/	.	2ff#\	.	.	.	.	.	2a\	-ta	.
.	.	.	.	.	.	4D\	spes	4c\	spes	.	.	.
=137	=137	=137	=137	=137	=137	=137	=137	=137	=137	=137	=137	=137
!	!	!LO:TX:t=P:problem: ligatura od dołu i od góry	!	!	!	!	!	!	!	!	!	!
1.E	4:3	2a/]	.	1.ee	.	(2E\	me-	(2c\	me-	1a	me-	.
.	.	1e	.	.	.	1EE)	.	1B)	.	.	.	.
.	.	.	.	.	.	.	.	.	.	(2g#X\	-a	.
!	!	!	!	!	!	!	!	!LO:LB:g=original	!	!	!	!
=138||	=138||	=138||	=138||	=138||	=138||	=138||	=138||	=138||	=138||	=138||	=138||	=138||
*M2/1	*	*M2/1	*	*M2/1	*	*M2/1	*	*M2/1	*	*M2/1	*	*
*met(c)	*	*met(c)	*	*met(c|)	*	*met(c|)	*	*met(c)	*	*met(c)	*	*
1AA;,	#	2e/	.	2.cc#X\	.	2AA/	-a	8c#X\	-a	2a\)	.	.
.	.	.	.	.	.	.	.	8e\	et	.	.	.
.	.	.	.	.	.	.	.	8c#X\	si-	.	.	.
.	.	.	.	.	.	.	.	8e\	-ne	.	.	.
.	.	4.a/	.	.	.	2r	.	4A/	te	8r	.	.
.	.	.	.	.	.	.	.	.	.	8a\	et	.
.	.	.	.	4ee\	.	.	.	8.c#X\	si-	8g\	si-	.
.	.	8a,/	.	.	.	.	.	.	.	8a\	-ne	.
.	.	.	.	.	.	.	.	16c#\	-ne	.	.	.
!	!	!	!	!	!	!LO:LB:g=original	!	!	!	!	!	!
4D/	.	8a/L	.	4.ff#X\	.	8r	.	4d\	te	4f#X\	te	.
!	!	!LO:TX:b:t=P:problem:# below	!	!	!	!	!	!	!	!	!	!
.	.	8f#X/	.	.	.	8D/	et	.	.	.	.	.
8C/L	.	8e/	.	.	.	8C/	si-	4r	.	4r	.	.
8D/J	.	8f#X/J	.	8ff#\	.	8D/	-ne	.	.	.	.	.
!LO:SIC:v:t=custos C	!	!LO:TX:b:t=P:problem:# below	!	!	!	!	!	!	!	!	!	!
!	!	!	!	!	!	!	!	!	!	!LO:LB:g=original	!	!
2BB/	6	2d,/	.	2gg\	.	4.BB/	te	8r	.	8r	.	.
.	.	.	.	.	.	.	.	8B\	et	8g\	et	.
.	.	.	.	.	.	.	.	8A\	si-	8f#X\	si-	.
!	!	!	!	!	!	!LO:TX:t=P:problem:kreska pseudotaktowa	!	!LO:TX:t=P:problem:kreska pseudotaktowa	!	!LO:TX:t=P:problem:kreska pseudotaktowa	!	!
.	.	.	.	.	.	8BB/	est	8B\	-ne	8g\	-ne	.
!LO:LB:g=original	!	!	!	!	!	!	!	!	!	!	!	!
=139	=139	=139	=139	=139	=139	=139	=139	=139	=139	=139	=139	=139
4C/	.	4e/	.	2r	.	4C/	vi-	4G/	te	4.e\	te	.
8E\L	.	8g/L	.	.	.	8E\	-ta	4c\	est	.	.	.
8F\J	.	8a/J	.	.	.	8F\	est	.	.	8d\	est	.
!LO:TX:t=P:problem:kreska pseudotaktowa	!	!	!	!	!	!	!	!	!	!	!	!
2G\	4:3	2g/	.	8r	.	4.G\	vi-	4.c\	vi-	4.d\	vi-	.
.	.	.	.	8gg\L	.	.	.	.	.	.	.	.
.	.	.	.	8ff\	.	.	.	.	.	.	.	.
!	!	!	!	!LO:SIC:v:t=custos ee	!	!	!	!	!	!	!	!
.	.	.	.	8gg\J	.	8GG/	-ta	8B\	-ta	8d\	-ta	.
!	!	!	!	!LO:LB:g=original	!	!	!	!LO:LB:g=original	!	!	!	!
2C/	.	4.g/	.	4ee\	.	4.C/	mors	4.c\	mors	4.e\	mors	.
.	.	.	.	4gg\	.	.	.	.	.	.	.	.
.	.	8cc\	.	.	.	8C/	est	8G/	est	8e\	est	.
4F\	.	4cc\	.	4ff\	.	4F\	vi-	4A/	vi-	4f\	vi-	.
4E\	6	8ee\L	.	8cc\L	.	8E\	-ta	8G/	-ta	8g\	-ta	.
.	.	8ee\J	.	8cc\J	.	8E\	est	8G/	est	8g\	est	.
=140	=140	=140	=140	=140	=140	=140	=140	=140	=140	=140	=140	=140
1F	.	1a	.	1cc	.	2.F\	vi-	2.A/	vi-	2.f\	vi-	.
.	.	.	.	.	.	4FF/	-ta	4A/	-ta	4f\	-ta	.
!LO:TX:t=P:problem: w źródle 2 breves zamiast longi	!	!	!	!LO:TX:t=P:problem: w źródle 2 breves zamiast longi	!	!LO:TX:t=P:problem: w źródle 2 breves zamiast longi	!	!LO:TX:t=P:problem: w źródle 2 breves zamiast longi	!	!LO:TX:t=P:problem: w źródle 2 breves zamiast longi	!	!
1C;l	.	1cc;	.	1ee;l	.	1C;l	mors.	1G;l	mors.	1e;l	mors.	.
==	==	==	==	==	==	==	==	==	==	==	==	==
*-	*-	*-	*-	*-	*-	*-	*-	*-	*-	*-	*-	*-
!!!system-decoration: [(s1,s2,s3)][(s4,s5)]s6
!!!RDF**kern: > = above
!!!RDF**kern: < = below
!!!RDF**kern: l = terminal long
!!!ENC: Andrzej Kubiczek
!!!END: 2022-02-02
!!!ENC: Jan Barakat
!!!END: 2022-02-19
!!!YEC: Copyright 2022 Narodowy Instytut Fryderyka Chopina (https://polishscores.org)
!!!YEM: License CC-BY-4.0 (https://creativecommons.org/licenses/by/4.0)
